!!!COM: L van Beethoven
!!!OTL: String Quartet Op18 No4
**kern	**dynam	**kern	**dynam	**kern	**dynam	**kern	**text	**dynam	**mxhm
*part4	*part4	*part3	*part3	*part2	*part2	*part1	*part1	*part1	*part1
*staff4	*	*staff3	*	*staff2	*	*staff1	*staff1	*	*
*I"Violoncello	*	*I"Viola	*	*I"Violin II	*	*I"Violin I	*	*	*
*clefF4	*	*clefC3	*	*clefG2	*	*clefG2	*	*	*
*k[b-e-a-]	*	*k[b-e-a-]	*	*k[b-e-a-]	*	*k[b-e-a-]	*	*	*
*c:	*	*c:	*	*c:	*	*c:	*	*
*M2/2	*	*M2/2	*	*M2/2	*	*M2/2	*	*	*
!	!	!	!	!	!	!LO:TX:a:B:t=Allegro	!	!	!
*MM170	*	*MM170	*	*MM170	*	*MM170	*	*	*
!	!	!	!	!	!	!LO:TX:a:t=[quarter]=170	!	!	!
4r	.	4r	.	4r	.	(8ee-L	.	p	i
.	.	.	.	.	.	8ffJ)	.	.	.
=1	=1	=1	=1	=1	=1	=1	=1	=1	=1
!	!	!	!LO:DY:a	!	!	!	!	!	!
4C	p	4c	p p	4G 4e-	.	(8ggL	.	.	.
.	.	.	.	.	.	8ee-)	.	.	.
4r	.	4r	.	4r	.	8ff'	.	.	.
.	.	.	.	.	.	8dd'J	.	.	.
4C	.	4c	.	4G 4e-	.	(8ee-L	.	.	.
.	.	.	.	.	.	8cc)	.	.	.
4r	.	4r	.	4r	.	8dd'	.	.	.
.	.	.	.	.	.	8bn'J	.	.	.
=2	=2	=2	=2	=2	=2	=2	=2	=2	=2
.	.	.	.	.	.	8qdd/	.	.	.
4C	.	4c	.	4G 4e-	.	8cc'L	.	.	.
.	.	.	.	.	.	8bn'	.	.	.
4r	.	4r	.	4r	.	8cc'	.	.	.
.	.	.	.	.	.	8dd'J	.	.	.
4r	.	4r	.	4r	.	8ee-'L	.	.	.
.	.	.	.	.	.	8een'	.	.	.
4C'	.	4G' 4e-	.	4cc'	.	8ff'	.	.	.
.	.	.	.	.	.	8ff#X'J	.	.	.
=3	=3	=3	=3	=3	=3	=3	=3	=3	=3
!LO:TX:b:t=cresc.	!	!LO:TX:b:t=cresc.	!	!LO:TX:b:t=cresc.	!	!LO:TX:b:t=cresc.	!	!	!
4BBn'	.	4G' 4f	.	4dd'	.	4gg'	.	.	V65
4C'	.	4G' 4e-	.	4cc'	.	4gg'	.	.	i
4GG'	.	4G' 4d	.	4bn'	.	4gg'	.	.	V
4C'	.	4G' 4e-	.	4cc'	.	4gg'	.	.	i
=4	=4	=4	=4	=4	=4	=4	=4	=4	=4
2.GG	f	2.G 2.d	f	2.bn	f	2.gg	.	f	V
4r	.	4r	.	4r	.	(8ee-L	.	p	.
.	.	.	.	.	.	8ffJ)	.	.	.
=5	=5	=5	=5	=5	=5	=5	=5	=5	=5
!	!	!	!LO:DY:a	!	!	!	!	!	!
4C	p	4c	p p	4G 4e-	.	(8ggL	.	.	i
.	.	.	.	.	.	8ee-)	.	.	.
4r	.	4r	.	4r	.	8ff'	.	.	.
.	.	.	.	.	.	8dd'J	.	.	.
4C	.	4c	.	4G 4e-	.	(8ee-L	.	.	.
.	.	.	.	.	.	8cc)	.	.	.
4r	.	4r	.	4r	.	8dd'	.	.	.
.	.	.	.	.	.	8bn'J	.	.	.
=6	=6	=6	=6	=6	=6	=6	=6	=6	=6
.	.	.	.	.	.	8qdd'/	.	.	v.iv
4C	.	4c	.	4G 4e-	.	8cc'L	.	.	.
.	.	.	.	.	.	8bn'	.	.	.
4r	.	4r	.	4r	.	8cc'	.	.	.
.	.	.	.	.	.	8dd'J	.	.	.
4r	.	4r	.	4r	.	8een'L	.	.	.
.	.	.	.	.	.	8ff#X'	.	.	.
4C#X	.	4B-	.	4G 4en	.	8gg'	.	.	#viio7/V
.	.	.	.	.	.	8aan'J	.	.	.
=7	=7	=7	=7	=7	=7	=7	=7	=7	=7
4D'	.	4B-'	.	4G' 4d	.	4bb-'	.	.	V(64)
!LO:TX:b:t=cresc.	!	!LO:TX:b:t=cresc.	!	!LO:TX:b:t=cresc.	!	!LO:TX:b:t=cresc.	!	!	!
4E-'	.	4G'	.	4g'	.	4c#X'	.	.	.It6
4D'	.	4G'	.	4B-'	.	4d'	.	.	V(64)
4DD'	.	4F#X'	.	4An'	.	4d'	.	.	V
=	=	=	=	=	=	=	=	=	=
!	!	!	!LO:DY:a	!	!LO:DY:a	!	!	!	!
2.GG	sf	2.G	sf sf	2.G	sf	2.G	v	.	i\\
=8:|!|:	=8:|!|:	=8:|!|:	=8:|!|:	=8:|!|:	=8:|!|:	=8:|!|:	=8:|!|:	=8:|!|:	=8:|!|:
4r	.	4r	.	4r	.	(8ggL	.	p	.
.	.	.	.	.	.	8aa-J	.	.	.
=9	=9	=9	=9	=9	=9	=9	=9	=9	=9
4C	p	4g	p	4en'	p	4bb-')	.	.	i.V7/iv
4r	.	4r	.	4b-'	.	4een'	.	.	.
4F	.	4c	.	4a-'	.	4ff'	.	.	iv
4r	.	4r	.	(4f	sf	[4aa-	.	sf	.
=10	=10	=10	=10	=10	=10	=10	=10	=10	=10
4BB-	.	4f	.	4d')	.	4aa-']	.	.	VII7
4r	.	4r	.	4a-'	.	4dd'	.	.	.
4E-	.	4B-	.	4g'	.	4ee-'	.	.	III
4r	.	4r	.	(4e-	sf	([4gg	.	sf	.
=11	=11	=11	=11	=11	=11	=11	=11	=11	=11
4AA-	.	4f	.	4c	.	4gg]	.	.	iv6(9)
4r	.	4r	.	8dL	.	8ffL	.	.	.
.	.	.	.	8e-J)	.	8ee-J)	.	.	.
4A-	.	4c	.	4f'	.	4dd'	.	.	ii%43
4r	.	4r	.	4f#X'	.	4cc'	.	.	.It6
=12	=12	=12	=12	=12	=12	=12	=12	=12	=12
2.G;	.	(4d	.	2.g;	.	(4bn	.	.	V\\
.	.	2Bn;)	.	.	.	2dd;)	.	.	.
4r	.	4r	.	4r	.	(8ee-L	.	p	.
.	.	.	.	.	.	8ffJ)	.	.	.
=13	=13	=13	=13	=13	=13	=13	=13	=13	=13
4C	p	4c	p	4G 4e-	p	(8ggL	.	.	i
.	.	.	.	.	.	8ee-)	.	.	.
4r	.	4r	.	4r	.	8ff'	.	.	.
.	.	.	.	.	.	8dd'J	.	.	.
4C	.	4c	.	4G 4e-	.	(8ee-L	.	.	.
.	.	.	.	.	.	8cc)	.	.	.
4r	.	4r	.	4r	.	8dd'	.	.	.
.	.	.	.	.	.	8bn'J	.	.	.
=14	=14	=14	=14	=14	=14	=14	=14	=14	=14
!LO:TX:b:t=cresc.	!	!LO:TX:b:t=cresc.	!	!LO:TX:b:t=cresc.	!	!LO:TX:b:t=cresc.	!	!	!
.	.	.	.	.	.	8qdd'/	.	.	i6
4E-	.	4c	.	4G 4e-	.	8cc'L	.	.	.
.	.	.	.	.	.	8bn'	.	.	.
4BB-	.	4c	.	4en	.	8cc'	.	.	V2/iv
.	.	.	.	.	.	8dd'J	.	.	.
4AA-	.	4c	.	4f	.	8ee-'L	.	.	iv65
.	.	.	.	.	.	8een'	.	.	.
4GG	.	4en	.	4c 4g	.	8ff'	.	.	V64/iv
.	.	.	.	.	.	8gg'J	.	.	.
=15	=15	=15	=15	=15	=15	=15	=15	=15	=15
4FF'	.	4f'	.	4a-'	.	4aa-'	.	.	iv
4AA-'	f	4c'	f	4cc'	f	4f#X'	.	f	.It6
4GG'	.	4c'	.	4e-'	.	4g'	.	.	V(64)
4GG'	.	4Bn'	.	4d'	.	4G'	.	.	V
=	=	=	=	=	=	=	=	=	=
2.CC	.	2.C 2.c	.	2.c	.	2.c	.	.	i\\
=16:|!|:	=16:|!|:	=16:|!|:	=16:|!|:	=16:|!|:	=16:|!|:	=16:|!|:	=16:|!|:	=16:|!|:	=16:|!|:
4r	.	4r	.	4e-	p	4r	.	.	.
=17	=17	=17	=17	=17	=17	=17	=17	=17	=17
1A-	p	1c	p	(2e-	.	[1ee-	.	p	VI.I
.	.	.	.	[2a-)	.	.	.	.	.
=18	=18	=18	=18	=18	=18	=18	=18	=18	=18
(1B-	.	(1d-X	.	(4a-]	.	1ee-_	.	.	V43
.	.	.	.	4g	.	.	.	.	.
.	.	.	.	4f	.	.	.	.	.
.	.	.	.	4g)	.	.	.	.	.
=19	=19	=19	=19	=19	=19	=19	=19	=19	=19
(2c)	.	(2e-)	.	(4a-	.	2ee-]	.	.	I6
.	.	.	.	4b-	.	.	.	.	.
2F	.	2A-	.	4cc	.	([2aa-	.	.	#viio6/V
.	.	.	.	4dd)	.	.	.	.	.
=20	=20	=20	=20	=20	=20	=20	=20	=20	=20
2E-	.	2B-	.	(2ee-	.	2aa-]	.	.	V(4)
[2e-)	.	2b-)	.	2dd-X)	.	2gg)	.	.	V7
=21	=21	=21	=21	=21	=21	=21	=21	=21	=21
(2e-]	<	(2an	<	(2cc	<	(2gg-X	.	<	#viio43/ii
[2d-X	[[	2b-	[[	2dd-X	[[	2ff	.	[[	ii6
=22	=22	=22	=22	=22	=22	=22	=22	=22	=22
2d-]	>	2g	>	2b-	>	2ff-X	.	>	viio43
2c)	]]	2a-)	]]	[2cc)	]]	[2ee-)	.	]]	I6
=23	=23	=23	=23	=23	=23	=23	=23	=23	=23
(2D-X	.	4f	.	(4cc]	.	(4ee-]	.	.	ii6(94)
.	.	(4f	.	4b-	.	4dd-X	.	.	ii6
2E-)	.	4e-	.	4a-	.	4cc	.	.	V(64)
.	.	4d-X)	.	4g)	.	4b-)	.	.	V7
=	=	=	=	=	=	=	=	=	=
2.AA-	.	(2d-X	.	(2g	.	(2b-	.	.	I(974)
.	.	4c)	.	4a-)	.	4a-)	.	.	I\\
=24:|!|:	=24:|!|:	=24:|!|:	=24:|!|:	=24:|!|:	=24:|!|:	=24:|!|:	=24:|!|:	=24:|!|:	=24:|!|:
4r	.	4r	.	4B-	.	4r	.	.	.
=25	=25	=25	=25	=25	=25	=25	=25	=25	=25
(4E-	.	1r	.	(2B-	<	1r	.	.	V
4B-	.	.	.	.	.	.	.	.	.
4G	.	.	.	2e-	.	.	.	.	.
4E-)	.	.	.	.	.	.	.	.	.
=26	=26	=26	=26	=26	=26	=26	=26	=26	=26
4BB-	.	(4B-	.	2d	.	1r	.	.	V7/V
4r	.	4f	.	.	.	.	.	.	.
2r	.	4d	.	2a-)	[[	.	.	.	.
.	.	4B-)	.	.	.	.	.	.	.
=27	=27	=27	=27	=27	=27	=27	=27	=27	=27
(4E-	.	4f	.	(2g	>	1r	.	.	V7
4B-	.	4r	.	.	.	.	.	.	.
4G	.	2r	.	2dd-X	.	.	.	.	.
4E-)	.	.	.	.	.	.	.	.	.
=28	=28	=28	=28	=28	=28	=28	=28	=28	=28
4A-	.	(4A-	.	2cc	.	1r	.	.	I
4r	.	4e-	.	.	.	.	.	.	.
2r	.	4c	.	[2a-)	]]	.	.	.	.
.	.	4A-)	.	.	.	.	.	.	.
=29	=29	=29	=29	=29	=29	=29	=29	=29	=29
1E-	.	(2E-	.	(4a-]	.	(2b-	.	.	V
.	.	.	.	4g	.	.	.	.	.
.	.	2g	.	4f	.	2ee-	.	.	.
.	.	.	.	4e-)	.	.	.	.	.
=30	=30	=30	=30	=30	=30	=30	=30	=30	=30
1BB-	.	2f	.	(4A-	.	2dd	.	.	V7/V
.	.	.	.	4d	.	.	.	.	.
.	.	2d)	.	4f	.	2aa-)	.	.	.
.	.	.	.	4a-)	.	.	.	.	.
=31	=31	=31	=31	=31	=31	=31	=31	=31	=31
!LO:TX:b:t=cresc.	!	!LO:TX:b:t=cresc.	!	!LO:TX:b:t=cresc.	!	!LO:TX:b:t=cresc.	!	!	!
(2EE-	.	(2b-	.	4g	.	(2gg	.	.	V
.	.	.	.	2e-	.	.	.	.	.
2E-	.	2G	.	.	.	[2ddd-X)	.	.	V7
.	.	.	.	[4e-	.	.	.	.	.
=32	=32	=32	=32	=32	=32	=32	=32	=32	=32
2F	.	2A-	.	4e-]	.	(4ddd-]	.	.	vi7
.	.	.	.	2e-	.	4bb-	.	.	.
2G)	.	2B-)	.	.	.	4gg	.	.	V6
.	.	.	.	4e-	.	4dd-X)	.	.	V65
=33	=33	=33	=33	=33	=33	=33	=33	=33	=33
(1A-	p	(1c	p	(2e-	p	(4cc	.	p	I
.	.	.	.	.	.	4ee-)	.	.	.
.	.	.	.	[2a-)	.	4ee-	.	.	.
.	.	.	.	.	.	4ee-	.	.	.
=34	=34	=34	=34	=34	=34	=34	=34	=34	=34
1B-)	.	1d-X)	.	(4a-]	.	[1ee-	.	.	V43
.	.	.	.	4g	.	.	.	.	.
.	.	.	.	4f	.	.	.	.	.
.	.	.	.	4g	.	.	.	.	.
=35	=35	=35	=35	=35	=35	=35	=35	=35	=35
(2c	.	(2e-	.	4a-	.	2ee-]	.	.	I6
.	.	.	.	4b-	.	.	.	.	.
2F	.	2A-	.	4cc	.	([2aa-	.	.	#viio6/V
.	.	.	.	4dd)	.	.	.	.	.
=36	=36	=36	=36	=36	=36	=36	=36	=36	=36
2E-	.	2B-	.	(2.ee-	.	2aa-]	.	.	V(4)
[2e-)	.	2b-)	.	.	.	2gg)	.	.	V7
.	.	.	.	4dd-X)	.	.	.	.	.
=37	=37	=37	=37	=37	=37	=37	=37	=37	=37
2e-]	.	(4an	.	(4cc	.	(4ff	.	.	V2/ii
.	.	4cc	.	2ff	.	4aan	.	.	.
[2d-X	.	4b-	.	.	.	[2bb-)	.	.	ii6
.	.	4f)	.	4b-)	.	.	.	.	.
=38	=38	=38	=38	=38	=38	=38	=38	=38	=38
(2d-]	.	(4g	.	(4b-	.	(4bb-]	.	.	viio64
.	.	4b-	.	2ee-	.	4gg	.	.	V2
4c)	.	4a-	.	.	.	4aa-	.	.	I6
4C	.	4c)	.	[4a-)	.	4een)	.	.	I+6
=39	=39	=39	=39	=39	=39	=39	=39	=39	=39
(2D-X	.	4d-X	.	(4a-]	.	(4ff	.	.	IV
.	.	(4d-	.	4f	.	4b-	.	.	ii6
2E-)	.	4B-	.	4d-X)	.	4dd-X	.	.	V7
.	.	[4e-)	.	4d-	.	4g)	.	.	.
=40	=40	=40	=40	=40	=40	=40	=40	=40	=40
2.AA-	.	(4e-]	.	(2d-X	.	(2b-	VI(42)	.	I(94)
.	.	4G	.	.	.	.	.	.	.
.	.	4A-)	.	4c)	.	4a-)	.	.	I\\
=41:|!	=41:|!	=41:|!	=41:|!	=41:|!	=41:|!	=41:|!	=41:|!	=41:|!	=41:|!
4AA-'	.	4A-'	.	4c	.	4a-	.	.	.
!LO:TX:b:t=cresc	!	!LO:TX:b:t=cresc.	!	!	!	!	!	!	!
4FF#X'	.	4F#X'	.	4r	.	4r	.	.	.
4GG'	.	4G'	.	2r	.	4r	.	.	.
4GG'	.	4G'	.	.	.	(8ee-L	.	p	.
.	.	.	.	.	.	8ffJ)	.	.	.
=42	=42	=42	=42	=42	=42	=42	=42	=42	=42
!	!	!	!LO:DY:a	!	!	!	!	!	!
4CC	.	4C	p p	4G 4e-	.	(8ggL	.	p	i.i
.	.	.	.	.	.	8ee-)	.	.	.
4r	.	4r	.	4r	.	8ff'	.	.	.
.	.	.	.	.	.	8dd'J	.	.	.
4C	.	4c	.	4G 4e-	.	(8ee-L	.	.	.
.	.	.	.	.	.	8cc)	.	.	.
4r	.	4r	.	4r	.	8dd'	.	.	.
.	.	.	.	.	.	8bn'J	.	.	.
=43	=43	=43	=43	=43	=43	=43	=43	=43	=43
.	.	.	.	.	.	8qdd'/	.	.	.
4C	.	4c	.	4G 4e-	.	8cc'L	.	.	.
.	.	.	.	.	.	8bn'	.	.	.
4r	.	4r	.	4r	.	8cc'	.	.	.
.	.	.	.	.	.	8dd'J	.	.	.
4r	.	4r	.	4r	.	8ee-'L	.	.	.
.	.	.	.	.	.	8een'	.	.	.
4C'	.	4G' 4e-	.	4cc'	.	8ff'	.	.	.
.	.	.	.	.	.	8ff#X'J	.	.	.
=44	=44	=44	=44	=44	=44	=44	=44	=44	=44
!	!	!LO:TX:b:t=cresc.	!	!LO:TX:b:t=cresc.	!	!LO:TX:b:t=cresc.	!	!	!
4BBn'	.	4G' 4f	.	4dd'	.	4gg'	.	.	V65
4C'	.	4G' 4e-	.	4cc'	.	4gg'	.	.	i
4GG'	.	4G' 4d	.	4bn'	.	4gg'	.	.	V
4C'	.	4G' 4e-	.	4cc'	.	4gg'	.	.	i
=45	=45	=45	=45	=45	=45	=45	=45	=45	=45
2.GG	f	2.G 2.d	f	2.bn	f	2.gg	.	f	V\\
4r	.	4r	.	4r	.	(8ee-L	.	p	.
.	.	.	.	.	.	8ffJ)	.	.	.
=46	=46	=46	=46	=46	=46	=46	=46	=46	=46
!	!	!	!LO:DY:a	!	!	!	!	!	!
4C	p	4c	p p	4G 4e-	.	(8ggL	.	.	i
.	.	.	.	.	.	8ee-)	.	.	.
4r	.	4r	.	4r	.	8ff'	.	.	.
.	.	.	.	.	.	8dd'J	.	.	.
4C	.	4c	.	4G 4e-	.	(8ee-L	.	.	.
.	.	.	.	.	.	8cc)	.	.	.
4r	.	4r	.	4r	.	8dd'	.	.	.
.	.	.	.	.	.	8bn'J	.	.	.
=47	=47	=47	=47	=47	=47	=47	=47	=47	=47
.	.	.	.	.	.	8qdd'/	.	.	v.iv
4C	.	4c	.	4G 4e-	.	8cc'L	.	.	.
.	.	.	.	.	.	8bn'	.	.	.
4r	.	4r	.	4r	.	8cc'	.	.	.
.	.	.	.	.	.	8dd'J	.	.	.
4r	.	4r	.	4r	.	8een'L	.	.	.
.	.	.	.	.	.	8ff#X'	.	.	.
4C#X	.	4B-	.	4G 4en	.	8gg'	.	.	#viio7/V
.	.	.	.	.	.	8aan'J	.	.	.
=48	=48	=48	=48	=48	=48	=48	=48	=48	=48
4D'	.	4B-'	.	4G' 4d	.	4bb-'	.	.	V(64)
!LO:TX:b:t=cresc.	!	!LO:TX:b:t=cresc.	!	!LO:TX:b:t=cresc.	!	!LO:TX:b:t=cresc.	!	!	!
4E-'	.	4G'	.	4g'	.	4c#X'	.	.	.It6
4D'	.	4G'	.	4B-'	.	4d'	.	.	V(64)
4DD'	.	4F#X'	.	4An'	.	4d'	.	.	V
=49	=49	=49	=49	=49	=49	=49	=49	=49	=49
!	!	!	!LO:DY:a	!	!LO:DY:a	!	!	!	!
2.GG	sf	2.G	sf sf	2.G	sf	2.G	.	.	i\\
4r	.	4r	.	4r	.	(8ee-L	.	p	.
.	.	.	.	.	.	8ffJ)	.	.	.
=50	=50	=50	=50	=50	=50	=50	=50	=50	=50
8CCL	p	8CL	p	8GL 8e-	p	(8ggL	.	.	i.i
8C	.	8c	.	8G 8e-	.	8ee-)	.	.	.
8C	.	8c	.	8G 8e-	.	8ff'	.	.	.
8CJ	.	8cJ	.	8GJ 8e-	.	8dd'J	.	.	.
!LO:TX:b:t=cresc.	!	!LO:TX:b:t=cresc.	!	!LO:TX:b:t=cresc.	!	!LO:TX:b:t=cresc.	!	!	!
8CL	.	8cL	.	8GL 8e-	.	(8ee-L	.	.	.
8C	.	8c	.	8G 8e-	.	8cc)	.	.	.
8C	.	8c	.	8G 8e-	.	8dd'	.	.	.
8CJ	.	8cJ	.	8GJ 8e-	.	8bn'J	.	.	.
=51	=51	=51	=51	=51	=51	=51	=51	=51	=51
8CL	.	8cL	.	8GL 8e-	.	8ccL	.	.	.
8C	.	8c	.	8G 8e-	.	8c	.	.	.
8C	.	8c	.	8G 8e-	.	8e-	.	.	.
8CJ	.	8cJ	.	8GJ 8e-	.	8gJ	.	.	.
8CL	.	8cL	.	8GL 8e-	.	8ccL	.	.	.
8C	.	8c	.	8G 8e-	.	8dd	.	.	.
8C	.	8G 8e-	.	8cc	.	8ee-	.	.	.
8CJ	.	8GJ 8e-	.	8ccJ	.	8ffJ	.	.	.
=52	=52	=52	=52	=52	=52	=52	=52	=52	=52
8BBnL	f	8GL 8f	f	8ddL	f	8ggL	.	f	V65
8BB	.	8G 8f	.	8dd	.	8ff#X	.	.	.
8C	.	8G 8e-	.	8cc	.	8gg	.	.	i
8CJ	.	8GJ 8e-	.	8ccJ	.	8ff#J	.	.	.
8GGL	.	8GL 8d	.	8bnL	.	8ggL	.	.	V
8GG	.	8G 8d	.	8b	.	8ff#	.	.	.
8C	.	8G 8e-	.	8cc	.	8gg	.	.	i
8CJ	.	8GJ 8e-	.	8ccJ	.	8ff#J	.	.	.
=53	=53	=53	=53	=53	=53	=53	=53	=53	=53
8GGL	.	4G 4d	.	4bn	.	8ggL	.	.	V\\
8GG	.	.	.	.	.	8g	.	.	.
8FF	.	4r	.	4r	.	8an	.	.	.
8FFJ	.	.	.	.	.	8bnJ	.	.	.
8EE-L	.	2r	.	2r	.	8ccL	.	.	.
8EE-	.	.	.	.	.	8dd	.	.	.
8DD	.	.	.	.	.	8ee-	.	.	.
8DDJ	.	.	.	.	.	8ffJ	.	.	.
=54	=54	=54	=54	=54	=54	=54	=54	=54	=54
!	!	!	!LO:DY:a	!	!	!	!	!	!
8CCL	p	8CL	p p	8GL 8e-	.	(8ggL	.	p	i
8C	.	8c	.	8G 8e-	.	8ee-)	.	.	.
8C	.	8c	.	8G 8e-	.	8ff'	.	.	.
8CJ	.	8cJ	.	8GJ 8e-	.	8dd'J	.	.	.
!LO:TX:b:t=cresc.	!	!LO:TX:b:t=cresc.	!	!LO:TX:b:t=cresc.	!	!LO:TX:b:t=cresc.	!	!	!
8CL	.	8cL	.	8GL 8e-	.	(8ee-L	.	.	.
8C	.	8c	.	8G 8e-	.	8cc)	.	.	.
8C	.	8c	.	8G 8e-	.	8dd'	.	.	.
8CJ	.	8cJ	.	8GJ 8e-	.	8bn'J	.	.	.
=55	=55	=55	=55	=55	=55	=55	=55	=55	=55
.	.	.	.	.	.	8qdd/	.	.	v.iv
8CL	.	8cL	.	8GL 8e-	.	8ccL	.	.	.
8C	.	8c	.	8G 8e-	.	8bn	.	.	.
8C	.	8c	.	8G 8e-	.	8cc	.	.	.
8CJ	.	8cJ	.	8GJ 8e-	.	8ddJ	.	.	.
8C#XL	.	8B-L	.	8GL 8en	.	8eenL	.	.	#viio7/V
8C#	.	8B-	.	8G 8e	.	8ff#X	.	.	.
8C#	.	8B-	.	8G 8e	.	8gg	.	.	.
8C#J	.	8B-J	.	8GJ 8e	.	8aanJ	.	.	.
=56	=56	=56	=56	=56	=56	=56	=56	=56	=56
!	!	!	!LO:DY:a	!	!	!	!	!	!
8DL	f	8B-L	f f	8GL 8d	.	8bb-L	.	f	i64
8D	.	8g	.	8b-	.	8gg	.	.	.
8E-	.	8e-	.	8g	.	8bb-	.	.	VI
8E-J	.	8e-J	.	8b-J	.	8ggJ	.	.	.
8C#XL	.	8enL	.	8gL	.	8aanL	.	.	V65/V
8C#	.	8e	.	8an	.	8gg	.	.	.
8D	.	8c	.	8f#X	.	8aa	.	.	V7
8DJ	.	8cJ	.	8aJ	.	8ff#XJ	.	.	.
=57	=57	=57	=57	=57	=57	=57	=57	=57	=57
8GGL	.	4B-	.	4g	.	4gg	.	.	i\\
8GG	.	.	.	.	.	.	.	.	.
8AA-	.	4r	.	4r	.	4r	.	.	.
8AA-J	.	.	.	.	.	.	.	.	.
8GGL	.	2r	.	2r	.	4r	.	.	.
8GG	.	.	.	.	.	.	.	.	.
8FF	.	.	.	.	.	(8ggL	.	p	.
8FFJ	.	.	.	.	.	8aa-J	.	.	.
=58	=58	=58	=58	=58	=58	=58	=58	=58	=58
4EEn	p	4g	p	4r	.	4bb-')	.	.	i.V6/iv
4CC	.	4r	.	4b-'	p	4een'	.	.	V7/iv
4FF	.	4c	.	4a-'	.	4ff'	.	.	iv
4r	.	4r	.	(4f	sf	[4aa-	.	sf	.
=59	=59	=59	=59	=59	=59	=59	=59	=59	=59
4BB-	.	4f	.	4d')	.	4aa-']	.	.	VII7
4r	.	4r	.	4a-'	.	4dd'	.	.	.
4E-	.	4B-	.	4g'	.	4ee-'	.	.	III
4r	.	4r	.	(4e-	sf	([4gg	.	sf	.
=60	=60	=60	=60	=60	=60	=60	=60	=60	=60
4AA-	.	4f	.	4c	.	4gg]	.	.	iv6
4r	.	4r	.	8dL	.	8ffL	.	.	.
.	.	.	.	8e-J	.	8ee-J)	.	.	.
4A-	.	4c	.	4f)	.	4dd'	.	.	ii%43
4r	.	4r	.	4f#X	.	4cc'	.	.	.It6
=61	=61	=61	=61	=61	=61	=61	=61	=61	=61
2.G;	.	(4d	.	2.g;	.	(4bn	.	.	V\\
.	.	2Bn;)	.	.	.	2dd;)	.	.	.
4r	.	4r	.	4r	.	(8ee-L	.	p	.
.	.	.	.	.	.	8ffJ)	.	.	.
=62	=62	=62	=62	=62	=62	=62	=62	=62	=62
!	!	!	!LO:DY:a	!	!	!	!	!	!
4C	p	4c	p p	4G 4e-	.	(8ggL	.	.	i
.	.	.	.	.	.	8ee-)	.	.	.
4r	.	4r	.	4r	.	8ff'	.	.	.
.	.	.	.	.	.	8dd'J	.	.	.
4C	.	4c	.	4G 4e-	.	(8ee-L	.	.	.
.	.	.	.	.	.	8cc)	.	.	.
4r	.	4r	.	4r	.	8dd'	.	.	.
.	.	.	.	.	.	8bn'J	.	.	.
=63	=63	=63	=63	=63	=63	=63	=63	=63	=63
!LO:TX:b:t=cresc.	!	!LO:TX:b:t=cresc.	!	!LO:TX:b:t=cresc.	!	!LO:TX:b:t=cresc.	!	!	!
.	.	.	.	.	.	8qdd/	.	.	i
4C	.	4c	.	4G 4e-	.	8ccL	.	.	.
.	.	.	.	.	.	8bn	.	.	.
4BB-	.	4c	.	4en	.	8cc	.	.	V2/iv
.	.	.	.	.	.	8ddJ	.	.	.
4AA-	.	4c	.	4f	.	8ee-L	.	.	iv65
.	.	.	.	.	.	8een	.	.	.
4GG	.	4en	.	4c 4g	.	8ff	.	.	V64/iv
.	.	.	.	.	.	8ggJ	.	.	.
=64	=64	=64	=64	=64	=64	=64	=64	=64	=64
4FF	.	4f	.	4a-	.	4aa-	.	.	iv
4AA-	f	4c	f	4cc	f	4f#X	.	f	.It6
4GG	.	4c	.	4e-	.	4g	.	.	V(64)
4GG	.	4Bn	.	4d	.	4g	.	.	V
=65	=65	=65	=65	=65	=65	=65	=65	=65	=65
2.C	.	2.C 2.c	.	2.c	.	2.cc	.	.	i\\
4r	.	4r	.	4r	.	(8ggL	.	.	.
.	.	.	.	.	.	8aa-J)	.	.	.
=66	=66	=66	=66	=66	=66	=66	=66	=66	=66
8CL	sf	8cL	sf	8gL 8b-	sf	(8bb-L	.	sf	V7/iv
8C	.	8c	.	8g 8b-	.	8gg)	.	.	.
8C	.	8c	.	8g 8b-	.	8ff'	.	.	.
8CJ	.	8cJ	.	8gJ 8b-	.	8een'J	.	.	.
.	.	.	.	.	.	8qgg/	.	.	iv
4F	.	4c	.	4a-	.	8ffL	.	.	.
.	.	.	.	.	.	8ee	.	.	.
4r	.	4r	.	4r	.	8ff	.	.	.
.	.	.	.	.	.	8ggJ	.	.	.
=67	=67	=67	=67	=67	=67	=67	=67	=67	=67
8BB-L	sf	8fL	sf	8B-L 8a-	sf	(8aa-L	.	sf	V7/III
8BB-	.	8f	.	8B- 8a-	.	8ff)	.	.	.
8BB-	.	8f	.	8B- 8a-	.	8ee-'	.	.	.
8BB-J	.	8fJ	.	8B-J 8a-	.	8dd'J	.	.	.
.	.	.	.	.	.	8qff/	.	.	III
4E-	.	4e-	.	4B- 4g	.	8ee-L	.	.	.
.	.	.	.	.	.	8dd	.	.	.
4r	.	4r	.	4r	.	8ee-	.	.	.
.	.	.	.	.	.	8ggJ	.	.	.
=68	=68	=68	=68	=68	=68	=68	=68	=68	=68
8AA-L	ff	8cL	ff	8e-L	ff	(8ffL	.	ff	VI
8AA-	.	8c	.	8e-	.	8gg)	.	.	.
8AA-	.	8c	.	8e-	.	8ee-'	.	.	.
8AA-J	.	8cJ	.	8e-J	.	8ff'J	.	.	.
8AA-L	.	8cL	.	8f#XL	.	(8ddL	.	.	.Ger6
8AA-	.	8c	.	8f#	.	8ee-)	.	.	.
8AA-	.	8c	.	8f#	.	8cc'	.	.	.
8AA-J	.	8cJ	.	8f#J	.	8dd'J	.	.	.
=69	=69	=69	=69	=69	=69	=69	=69	=69	=69
8GGL	.	4d	.	4Bn 4g	.	8bnL	.	.	V\\
8GG	.	.	.	.	.	8g	.	.	.
8FF	.	4r	.	4r	.	8an	.	.	V2
8FFJ	.	.	.	.	.	8bJ	.	.	.
8EE-L	.	2r	.	2r	.	8ccL	.	.	i6
8EE-	.	.	.	.	.	8dd	.	.	.
8DD	.	.	.	.	.	8ee-	.	.	#viio6
8DDJ	.	.	.	.	.	8ffJ	.	.	.
=70	=70	=70	=70	=70	=70	=70	=70	=70	=70
!	!	!	!LO:DY:a	!	!	!	!	!	!
8CCL	p	8CL	p p	8GL 8e-	.	(8ggL	.	p	i
8C	.	8c	.	8G 8e-	.	8ee-)	.	.	.
8C	.	8c	.	8G 8e-	.	8ff'	.	.	.
8CJ	.	8cJ	.	8GJ 8e-	.	8dd'J	.	.	.
!LO:TX:b:t=cresc.	!	!LO:TX:b:t=cresc.	!	!LO:TX:b:t=cresc.	!	!LO:TX:b:t=cresc.	!	!	!
8CL	.	8cL	.	8GL 8e-	.	(8ee-L	.	.	.
8C	.	8c	.	8G 8e-	.	8cc)	.	.	.
8C	.	8c	.	8G 8e-	.	8dd'	.	.	.
8CJ	.	8cJ	.	8GJ 8e-	.	8bn'J	.	.	.
=71	=71	=71	=71	=71	=71	=71	=71	=71	=71
.	.	.	.	.	.	8qdd/	.	.	.
8CL	.	8cL	.	8GL 8e-	.	8ccL	.	.	.
8C	.	8c	.	8G 8e-	.	8bn	.	.	.
8BB-	.	8c	.	8en	.	8cc	.	.	V2/iv
8BB-J	.	8cJ	.	8eJ	.	8ddJ	.	.	.
8AA-L	.	8cL	.	8fL	.	8ee-L	.	.	iv65
8AA-	.	8c	.	8f	.	8een	.	.	.
8GG	.	8en	.	8c 8g	.	8ff	.	.	V64/iv
8GGJ	.	8eJ	.	8cJ 8g	.	8ggJ	.	.	.
=72	=72	=72	=72	=72	=72	=72	=72	=72	=72
8FFL	f	8fL	f	8cL 8a-	f	8aa-L	.	f	iv
8FF	.	8f	.	8c 8a-	.	8ff	.	.	.
8FF	.	8d	.	8c 8a-	.	8aa-	.	.	ii%65
8FFJ	.	8dJ	.	8cJ 8a-	.	8ffJ	.	.	.
8GGL	.	8e-L	.	8cL 8g	.	8ee-L	.	.	V(64)
8GG	.	8e-	.	8c 8g	.	8gg	.	.	.
8GG	.	8f	.	8Bn 8g	.	8bn	.	.	V7
8GGJ	.	8fJ	.	8BJ 8g	.	8ddJ	.	.	.
=	=	=	=	=	=	=	=	=	=
4CC	.	4e-	.	4c 4g	.	4cc	.	.	i\\
4r	.	4r	.	4r	.	4r	.	.	.
4r	.	4r	.	4r	.	4r	.	.	.
8r	.	8r	.	8r	.	8r	.	.	.
=73!|:	=73!|:	=73!|:	=73!|:	=73!|:	=73!|:	=73!|:	=73!|:	=73!|:	=73!|:
*k[]	*	*k[]	*	*k[]	*	*k[]	*	*	*
*C:	*	*C:	*	*C:	*	*C:	*	*
(24GGLL	f	8r	.	8r	.	8r	.	.	.
24AA	.	.	.	.	.	.	.	.	.
24BBJJ)	.	.	.	.	.	.	.	.	.
=74	=74	=74	=74	=74	=74	=74	=74	=74	=74
[1C	p	4r	.	2r	.	1r	.	.	I
.	.	8r	.	.	.	.	.	.	.
.	.	(24GLL	f	.	.	.	.	.	.
.	.	24A	.	.	.	.	.	.	.
.	.	24BJJ)	.	.	.	.	.	.	.
.	.	[2c	p	4r	.	.	.	.	.
.	.	.	.	8r	.	.	.	.	.
.	.	.	.	(24gLL	f	.	.	.	.
.	.	.	.	24a	.	.	.	.	.
.	.	.	.	24bJJ)	.	.	.	.	.
=75	=75	=75	=75	=75	=75	=75	=75	=75	=75
1C_	.	2c]	.	[1cc	p	4r	.	.	I[I
.	.	.	.	.	.	8r	.	.	.
.	.	.	.	.	.	(32ccLLL	.	.	.
.	.	.	.	.	.	32dd	.	.	.
.	.	.	.	.	.	32ee	.	.	.
.	.	.	.	.	.	32ffJJJ)	.	.	.
.	.	2E	.	.	.	2gg	.	fp	.
=76	=76	=76	=76	=76	=76	=76	=76	=76	=76
1C_	.	(4F	.	2.cc]	.	(8aaL	.	.	IV
.	.	.	.	.	.	8ff#X)	.	.	.
.	.	4E	.	.	.	8gg'	.	.	I6
.	.	.	.	.	.	8gg'J	.	.	.
.	.	4A	.	.	.	(8ffnL	.	.	IV64
.	.	.	.	.	.	8dd#X)	.	.	.
.	.	4G)	.	4b	.	8ee'	.	.	III6
.	.	.	.	.	.	8ee'J	.	.	.
=77	=77	=77	=77	=77	=77	=77	=77	=77	=77
4C]	.	(4f	.	(4a	.	(8ddL	.	.	ii6
.	.	.	.	.	.	8b)	.	.	.
4C	.	4e	.	4g	.	8cc'	.	.	I6
.	.	.	.	.	.	8cc'J	.	.	.
4C	.	4d	.	4f	.	(8bL	.	.	viio6
.	.	.	.	.	.	8g#X)	.	.	.
4C	.	4c)	.	4e)	.	8a'	.	.	V.ii6
.	.	.	.	.	.	8g#'J	.	.	.
=78	=78	=78	=78	=78	=78	=78	=78	=78	=78
4D	.	4B	.	4d	.	(8ddL	.	.	V(64)
.	.	.	.	.	.	8b)	.	.	.
4r	.	4r	.	4r	.	8g'	.	.	.
.	.	.	.	.	.	8g'J	.	.	.
4D	.	4A	.	4c	.	(8ccL	.	.	V7
.	.	.	.	.	.	8a)	.	.	.
4r	.	4r	.	4r	.	8f#X'	.	.	.
.	.	.	.	.	.	8f#'J	.	.	.
=	=	=	=	=	=	=	=	=	=
4GG	.	4G	.	4B	.	8gL	.	.	I\\
.	.	.	.	.	.	8d	.	.	.
4r	.	4r	.	4r	.	8B	.	.	.
.	.	.	.	.	.	8dJ	.	.	.
4r	.	4r	.	4r	.	4G	.	.	.
8r	.	8r	.	8r	.	8r	.	.	.
=79:|!|:	=79:|!|:	=79:|!|:	=79:|!|:	=79:|!|:	=79:|!|:	=79:|!|:	=79:|!|:	=79:|!|:	=79:|!|:
(24DLL	.	8r	.	8r	.	8r	.	.	V
24E	.	.	.	.	.	.	.	.	.
24F#XJJ)	.	.	.	.	.	.	.	.	.
=80	=80	=80	=80	=80	=80	=80	=80	=80	=80
[1G	fp	4r	.	2r	.	1r	.	.	I
.	.	8r	.	.	.	.	.	.	.
.	.	(24dLL	.	.	.	.	.	.	.
.	.	24e	.	.	.	.	.	.	.
.	.	24f#XJJ)	.	.	.	.	.	.	.
.	.	2g	fp	4r	.	.	.	.	.
.	.	.	.	8r	.	.	.	.	.
.	.	.	.	(24ddLL	.	.	.	.	.
.	.	.	.	24ee	.	.	.	.	.
.	.	.	.	24ff#XJJ)	.	.	.	.	.
=81	=81	=81	=81	=81	=81	=81	=81	=81	=81
2G_	.	(4d	.	1gg	fp	8bL	.	.	.
.	.	.	.	.	.	8g	.	.	.
.	.	4e	.	.	.	8cc	.	.	IV64
.	.	.	.	.	.	8gJ	.	.	.
4.G]	.	4B)	.	.	.	(8ddL	.	.	I
.	.	.	.	.	.	8b)	.	.	.
.	.	4r	.	.	.	8g'	.	.	.
(24DLL	.	.	.	.	.	8g'J	.	.	.
24E	.	.	.	.	.	.	.	.	.
24F#XJJ)	.	.	.	.	.	.	.	.	.
=82	=82	=82	=82	=82	=82	=82	=82	=82	=82
[1G	fp	4r	.	2r	.	1r	.	.	.
.	.	8r	.	.	.	.	.	.	.
.	.	(24dLL	.	.	.	.	.	.	.
.	.	24e	.	.	.	.	.	.	.
.	.	24f#XJJ)	.	.	.	.	.	.	.
.	.	2g	fp	4r	.	.	.	.	.
.	.	.	.	8r	.	.	.	.	.
.	.	.	.	(24ddLL	.	.	.	.	.
.	.	.	.	24ee	.	.	.	.	.
.	.	.	.	24ff#XJJ)	.	.	.	.	.
=83	=83	=83	=83	=83	=83	=83	=83	=83	=83
1G_	.	(4B	.	2.gg	fp	8ddL	.	fp	I.V[V
.	.	.	.	.	.	8g	.	.	.
.	.	4c	.	.	.	8ee	.	.	I
.	.	.	.	.	.	8gJ	.	.	.
.	.	4d	.	.	.	8ffL	.	.	V43
.	.	.	.	.	.	8g	.	.	.
.	.	4e)	.	(4g	.	8gg	.	.	I6
.	.	.	.	.	.	8gJ	.	.	.
=84	=84	=84	=84	=84	=84	=84	=84	=84	=84
1G_	.	4f	.	4a	.	(8aaL	.	.	IV
.	.	.	.	.	.	8ff#X)	.	.	.
.	.	4e	.	4g	.	8gg'	.	.	I6
.	.	.	.	.	.	8gg'J	.	.	.
.	.	4a	.	4cc	.	(8ffnL	.	.	IV6
.	.	.	.	.	.	8dd#X)	.	.	.
.	.	4g	.	4b	.	8ee'	.	.	iii6
.	.	.	.	.	.	8ee'J	.	.	.
=85	=85	=85	=85	=85	=85	=85	=85	=85	=85
2.G]	.	4f	.	4a	.	(8ddL	.	.	ii6
.	.	.	.	.	.	8b)	.	.	.
.	.	4e	.	4g	.	8cc'	.	.	I6
.	.	.	.	.	.	8cc'J	.	.	.
.	.	4d	.	4f	.	(8bL	.	.	viio6]
.	.	.	.	.	.	8g#X)	.	.	.
4F#X	.	[4c	.	4e-X)	.	8a'	.	.	#viio7/V
.	.	.	.	.	.	8a'J	.	.	.
=86	=86	=86	=86	=86	=86	=86	=86	=86	=86
4G	.	4c]	.	4e	.	(8gL	.	.	V(64)
.	.	.	.	.	.	8e)	.	.	.
4r	.	4r	.	4r	.	8c'	.	.	.
.	.	.	.	.	.	8c'J	.	.	.
4GG	.	4G 4d	.	4b	.	(8fL	.	.	V7
.	.	.	.	.	.	8d)	.	.	.
4r	.	4r	.	4r	.	8B'	.	.	.
.	.	.	.	.	.	8B'J	.	.	.
=87	=87	=87	=87	=87	=87	=87	=87	=87	=87
4C	.	4G 4e	.	4cc	.	8cL	.	.	I\\
.	.	.	.	.	.	8G	.	.	.
4r	.	4r	.	4r	.	8c	.	.	.
.	.	.	.	.	.	8GJ	.	.	.
4r	.	4r	.	4r	.	4c	.	.	.
8r	.	8r	.	8r	.	8r	.	.	.
=88:|!	=88:|!	=88:|!	=88:|!	=88:|!	=88:|!	=88:|!	=88:|!	=88:|!	=88:|!
4C	.	4G 4e	.	4cc	.	8cL	.	.	I
.	.	.	.	.	.	8G	.	.	.
4r	.	4r	.	4r	.	8c	.	.	.
.	.	.	.	.	.	8GJ	.	.	.
2r	.	2r	.	4r	.	4c	.	.	.
.	.	.	.	(8e-XL	p	4r	.	.	.
.	.	.	.	8fJ)	.	.	.	.	.
=89!|:	=89!|:	=89!|:	=89!|:	=89!|:	=89!|:	=89!|:	=89!|:	=89!|:	=89!|:
*k[b-e-a-]	*	*k[b-e-a-]	*	*k[b-e-a-]	*	*k[b-e-a-]	*	*	*
4C	p	2r	.	(8gL	.	2r	.	.	i.i
.	.	.	.	8e-)	.	.	.	.	.
4r	.	.	.	8f'	.	.	.	.	.
.	.	.	.	8d'J	.	.	.	.	.
4C	.	(8gL	p	(8e-L	.	(8ggL	.	p	i
.	.	8e-)	.	8c)	.	8ee-)	.	.	.
4r	.	8f'	.	8d'	.	8ff'	.	.	.
.	.	8d'J	.	8Bn'J	.	8dd'J	.	.	.
=90	=90	=90	=90	=90	=90	=90	=90	=90	=90
.	.	.	.	.	.	8qdd/	.	.	.
4C	.	4c	.	4c	.	8ccL	.	.	.
.	.	.	.	.	.	8bn	.	.	.
4r	.	4r	.	4r	.	8cc	.	.	.
.	.	.	.	.	.	8ddJ	.	.	.
4r	.	4r	.	2r	.	8ee-L	.	.	.
.	.	.	.	.	.	8een	.	.	.
4C'	.	4G' 4e-	.	.	.	8ff	.	.	.
.	.	.	.	.	.	8ff#XJ	.	.	.
=91	=91	=91	=91	=91	=91	=91	=91	=91	=91
!LO:TX:b:t=cresc.	!	!LO:TX:b:t=cresc.	!	!	!	!LO:TX:b:t=cresc.	!	!	!
4BBn'	.	4G' 4d	.	1r	.	4gg'	.	.	V6
4C'	.	4e-'	.	.	.	4gg'	.	.	i
4BB-X'	.	4d'	.	.	.	4gg'	.	.	v6
4AA-'	.	4c'	.	.	.	4gg'	.	.	VIM7
=92	=92	=92	=92	=92	=92	=92	=92	=92	=92
4GG	f	4Bn	f	4g	f	2.gg	.	sf	V
4r	.	4r	.	4g	.	.	.	.	.
2r	.	2r	.	4g	.	.	.	.	.
.	.	.	.	(8e-L	p	4r	.	.	.
.	.	.	.	8fJ)	.	.	.	.	.
=93	=93	=93	=93	=93	=93	=93	=93	=93	=93
4C	p	2r	.	(8gL	.	2r	.	.	i
.	.	.	.	8e-)	.	.	.	.	.
4r	.	.	.	8f'	.	.	.	.	.
.	.	.	.	8d'J	.	.	.	.	.
4C	.	(8gL	p	(8e-L	.	(8ggL	.	p	.
.	.	8e-)	.	8c)	.	8ee-)	.	.	.
4r	.	8f'	.	8d'	.	8ff'	.	.	.
.	.	8d'J	.	8Bn'J	.	8dd'J	.	.	.
=94	=94	=94	=94	=94	=94	=94	=94	=94	=94
.	.	.	.	.	.	8qdd/	.	.	v.iv
4C	.	4e-	.	4c	.	8ccL	.	.	.
!	!	!	!	!	!	!LO:TX:b:t=cresc.	!	!	!
.	.	.	.	.	.	8bn	.	.	.
4r	.	4r	.	4r	.	8cc	.	.	.
.	.	.	.	.	.	8ddJ	.	.	.
4r	.	2r	.	4r	.	8eenL	.	.	.
.	.	.	.	.	.	8ff#X	.	.	.
4C#X	f	.	.	(8enL	f	8gg	.	.	#viio7/V
.	.	.	.	8f#XJ)	.	8aanJ	.	.	.
=95	=95	=95	=95	=95	=95	=95	=95	=95	=95
4D'	.	4r	.	4g'	.	4bb-'	.	.	V(64)
4E-'	.	(8B-L	f	(8ggL	.	4c#X'	.	.	.Ger6
.	.	8AnJ)	.	8aanJ)	.	.	.	.	.
4D'	.	4G'	.	4bb-'	.	4d'	.	.	V(64)
4DD'	.	4A'	.	4f#X'	.	4d'	.	.	V
=96	=96	=96	=96	=96	=96	=96	=96	=96	=96
4GG	ff	4G	.	4g	.	4G	.	.	i\\
4GG	.	4r	.	4r	.	4r	.	.	.
4GG	.	2r	.	4r	.	2r	.	.	.
4GG	p	.	.	(8e-L	p	.	.	.	.
.	.	.	.	8fJ)	.	.	.	.	.
=97:|!	=97:|!	=97:|!	=97:|!	=97:|!	=97:|!	=97:|!	=97:|!	=97:|!	=97:|!
4GG	ff	4G	.	4g	.	4G	.	.	i
4GG	.	4r	.	4r	.	4r	.	.	.
4GG	.	4r	.	4r	.	2r	.	.	.
4GG	p	(8EnL	p	(8gL	p	.	.	.	.
.	.	8FJ	.	8a-J	.	.	.	.	.
=98	=98	=98	=98	=98	=98	=98	=98	=98	=98
4CC	.	4G')	.	4b-')	.	4r	.	.	i.V7/iv
4r	.	(4G	.	(4en	.	(4bb-	.	p	.
4F	.	4A-	.	4f	.	4aa-	.	.	iv
4r	.	4c)	.	[4a-)	.	4ff)	.	.	.
=99	=99	=99	=99	=99	=99	=99	=99	=99	=99
4BB-	.	4F	.	4a-]	.	4r	.	.	VII7
4r	.	(4F	.	(4d	.	4aa-	.	.	.
4E-	.	4G	.	4e-	.	4gg	.	.	III
4r	.	[4B-)	.	[4g)	.	4ee-	.	.	.
=100	=100	=100	=100	=100	=100	=100	=100	=100	=100
4AA-	.	(4B-]	.	(4g]	.	(4cc	.	.	iv6(2)
4r	.	8A-L	.	8fL	.	8ddL	.	.	.
.	.	8GJ	.	8e-J)	.	8ee-J)	.	.	.
4AA-	.	8FL	.	4d'	.	4ff'	.	.	ii%43
.	.	8E-	.	.	.	.	.	.	.
4r	.	8D	.	4c'	.	4ff#X'	.	.	.It6
.	.	8CJ)	.	.	.	.	.	.	.
=101	=101	=101	=101	=101	=101	=101	=101	=101	=101
2.GG;	.	(4D	.	(4Bn	.	2.gg;	.	.	V\\
.	.	2Bn;)	.	2d;)	.	.	.	.	.
4r	.	4r	.	(8e-L	.	4r	.	.	.
.	.	.	.	8fJ)	p	.	.	.	.
=102	=102	=102	=102	=102	=102	=102	=102	=102	=102
4C	p	2r	.	(8gL	.	2r	.	.	i
.	.	.	.	8e-)	.	.	.	.	.
4r	.	.	.	8f'	.	.	.	.	.
.	.	.	.	8d'J	.	.	.	.	.
4C	.	(8gL	p	(8e-L	.	(8ggL	.	p	.
.	.	8e-)	.	8c)	.	8ee-)	.	.	.
4r	.	8f'	.	8d'	.	8ff'	.	.	.
.	.	8d'J	.	8Bn'J	.	8dd'J	.	.	.
=103	=103	=103	=103	=103	=103	=103	=103	=103	=103
!LO:TX:b:t=cresc.	!	!LO:TX:b:t=cresc.	!	!	!	!	!	!	!
.	.	.	.	.	.	8qdd/	.	.	.
4C	.	4c	.	4c	.	8ccL	.	.	.
!	!	!	!	!	!	!LO:TX:b:t=cresc.	!	!	!
.	.	.	.	.	.	8bn	.	.	.
!	!	!	!	!LO:TX:b:t=cresc.	!	!	!	!	!
4BB-	.	4d-X	.	4r	.	8cc	.	.	.
.	.	.	.	.	.	8ddJ	.	.	.
4AA-	.	4c	.	4r	.	8ee-L	.	.	VI
.	.	.	.	.	.	8een	.	.	.
4GG	.	4B-	.	(8dL	.	8ff	.	.	#viio6/iv
.	.	.	.	8enJ)	.	8ggJ	.	.	.
=104	=104	=104	=104	=104	=104	=104	=104	=104	=104
4FF'	.	4A-'	.	4f'	.	4aa-'	.	.	iv
4A-'	f	(8e-L	f	(8ccL	f	4f#X'	.	f	.Ger6
.	.	8dJ)	.	8ddJ)	.	.	.	.	.
4G'	.	4c'	.	4ee-'	.	4g'	.	.	V(64)
4GG'	.	4d'	.	4bn'	.	4g'	.	.	V
=105	=105	=105	=105	=105	=105	=105	=105	=105	=105
4C	ff	4c	.	4cc	.	4c	.	.	i\\
4CC	.	4r	.	4r	.	4r	.	.	.
4CC	.	4r	.	4r	.	4r	.	.	.
4CC	p	(8GL	p	(8enL	p	(8ggL	.	p	.
.	.	8FJ	.	8fJ	.	8aa-J	.	.	.
=106	=106	=106	=106	=106	=106	=106	=106	=106	=106
4CC	.	4En')	.	4g')	.	4bb-')	.	.	V7/iv
4C	.	(4B-	.	(4g	.	(4een	.	.	.
4FF	.	4A-	.	4a-	.	4ff	.	.	iv
4r	.	4F)	.	4cc)	.	[4aa-)	.	.	.
=107	=107	=107	=107	=107	=107	=107	=107	=107	=107
4BB-	.	4D'	.	4r	.	4aa-]	.	.	VII7
4r	.	(4A-	.	(4f	.	(4dd	.	.	.
4EE-	.	4G	.	4g	.	4ee-	.	.	III
4r	.	4E-)	.	4b-)	.	[4gg)	.	.	.
=108	=108	=108	=108	=108	=108	=108	=108	=108	=108
4AA-	.	(4C	.	4cc	.	(4gg]	.	.	iv6(2)
4r	.	8DL	.	2c	.	8ffL	.	.	iv6
.	.	8E-J)	.	.	.	8ee-J)	.	.	.
4AA-	.	4F'	.	.	.	4dd'	.	.	ii%43
4r	.	4F#X'	.	4d	.	4cc'	.	.	.Fr6
=109	=109	=109	=109	=109	=109	=109	=109	=109	=109
!LO:TX:b:t=cresc.	!	!LO:TX:b:t=cresc.	!	!LO:TX:b:t=cresc.	!	!LO:TX:b:t=cresc.	!	!	!
4GG	.	4G	.	8dL	.	(4bn	.	.	V\\
.	.	.	.	8Bn	.	.	.	.	.
4GG	.	8AnL	.	8c	.	2dd)	.	.	.
.	.	8BnJ	.	8dJ	.	.	.	.	.
4GG	.	8cL	.	8e-L	.	.	.	.	.
.	.	8B	.	8d	.	.	.	.	.
4GG	.	8c	.	8e-	.	(8ee-L	.	.	.
.	.	8dJ	.	8fJ	.	8ffJ)	.	.	.
=110	=110	=110	=110	=110	=110	=110	=110	=110	=110
4CC	f	(8e-L	f	(8gL	f	(8ggL	.	f	i
.	.	8c)	.	8e-)	.	8ee-)	.	.	.
4r	.	8d'	.	8f'	.	8ff'	.	.	.
.	.	8Bn'J	.	8d'J	.	8dd'J	.	.	.
4C	.	(8GL	.	(8e-L	.	(8ee-L	.	.	.
.	.	8E-)	.	8c)	.	8cc)	.	.	.
4r	.	8F'	.	8d'	.	8dd'	.	.	.
.	.	8D'J	.	8Bn'J	.	8bn'J	.	.	.
=111	=111	=111	=111	=111	=111	=111	=111	=111	=111
.	.	.	.	.	.	8qdd/	.	.	.
4C	.	8CL	.	8cL	.	8ccL	.	.	.
.	.	8c	.	8cc	.	8bn	.	.	.
4BB-	.	8c	.	8cc	.	8cc	.	.	i2
.	.	8cJ	.	8ccJ	.	8ddJ	.	.	.
4AA-	.	8cL	.	8ccL	.	8ee-L	.	.	VI
.	.	8c	.	8cc	.	8een	.	.	.
4GG	.	8c	.	8cc	.	8ff	.	.	i64
.	.	8cJ	.	8ccJ	.	8ggJ	.	.	.
=112	=112	=112	=112	=112	=112	=112	=112	=112	=112
4FF	.	8cL	.	8ccL	.	4aa-	.	.	iv
.	.	8c	.	8cc	.	.	.	.	.
4AA-	.	8c	.	8cc	.	4f#X	.	.	.It6
.	.	8cJ	.	8ddJ	.	.	.	.	.
4GG	.	4c	.	4ee-	.	4g	.	.	V(64)
4GG	.	4d	.	4Bn	.	4g	.	.	V
=113	=113	=113	=113	=113	=113	=113	=113	=113	=113
4C	.	4c	.	4c	.	4c	.	.	i\\
4r	.	4r	.	4r	.	4r	.	.	.
!	!	!	!	!	!	!LO:TX:b:t=cresc.	!	!	!
2r	.	4r	.	2r	.	(8GL	.	.	i
.	.	.	.	.	.	8e-)	.	.	.
.	.	(8E-L	.	.	.	(8cc	.	.	.
.	.	8FJ)	.	.	.	8e-J	.	.	.
=114	=114	=114	=114	=114	=114	=114	=114	=114	=114
2r	.	[1G	sf	2r	.	8GL	.	.	V
.	.	.	.	.	.	8d)	.	.	.
.	.	.	.	.	.	(8bn	.	.	.
.	.	.	.	.	.	8dJ	.	.	.
4r	.	.	.	4r	.	8GL	.	.	.
.	.	.	.	.	.	8f)	.	.	.
(8AAnL	.	.	.	(8AnL	.	(8dd	.	.	.
8BBnJ)	.	.	.	8BnJ)	.	8fJ	.	.	.
=115	=115	=115	=115	=115	=115	=115	=115	=115	=115
2.C	sf	2.G]	.	2.c	sf	8GL	.	.	i
.	.	.	.	.	.	8e-)	.	.	.
.	.	.	.	.	.	(8cc	.	.	.
.	.	.	.	.	.	8e-J	.	.	.
.	.	.	.	.	.	8cL	.	.	.
.	.	.	.	.	.	8g)	.	.	.
(8E-L	.	(8e-L	.	4r	.	(8ee-	.	.	.
8FJ)	.	8fJ)	.	.	.	8gJ	.	.	.
=116	=116	=116	=116	=116	=116	=116	=116	=116	=116
2.G	sf	2.g	.	1r	.	8BnL	.	.	V
.	.	.	.	.	.	8g)	.	.	.
.	.	.	.	.	.	(8dd	.	.	.
.	.	.	.	.	.	8gJ	.	.	.
.	.	.	.	.	.	8cL	.	.	i64
.	.	.	.	.	.	8g)	.	.	.
(8E-L	.	(8e-L	.	.	.	(8ee-	.	.	.
8CJ	.	8cJ	.	.	.	8gJ	.	.	.
=117	=117	=117	=117	=117	=117	=117	=117	=117	=117
2.GG)	sf	2.G)	.	4r	.	12GL	.	.	V7
.	.	.	.	.	.	12d	.	.	.
.	.	.	.	.	.	12bn)	.	.	.
.	.	.	.	(8BnL	.	(12ff	.	.	.
.	.	.	.	.	.	12b	.	.	.
.	.	.	.	8dJ	.	.	.	.	.
.	.	.	.	.	.	12dJ	.	.	.
.	.	.	.	[2f)	sf	12GL	.	.	.
.	.	.	.	.	.	12d	.	.	.
.	.	.	.	.	.	12b)	.	.	.
(8DL	.	(8dL	.	.	.	(12ff	.	.	.
.	.	.	.	.	.	12b	.	.	.
8BBnJ	.	8BnJ	.	.	.	.	.	.	.
.	.	.	.	.	.	12dJ	.	.	.
=118	=118	=118	=118	=118	=118	=118	=118	=118	=118
4GG')	.	4G')	.	4f']	.	12GL	.	.	.
.	.	.	.	.	.	12d	.	.	.
.	.	.	.	.	.	12bn)	.	.	.
(8DL	.	(8dL	.	(8BnL	.	(12ff	.	.	.
.	.	.	.	.	.	12b	.	.	.
8BBnJ	.	8BnJ	.	8dJ	.	.	.	.	.
.	.	.	.	.	.	12dJ	.	.	.
4GG')	.	4G')	.	4f')	.	12GL	.	.	.
.	.	.	.	.	.	12d	.	.	.
.	.	.	.	.	.	12b)	.	.	.
(8DL	.	(8dL	.	(8fL	.	(12ff	.	.	.
.	.	.	.	.	.	12b	.	.	.
!	!	!	!	!	!LO:DY:a	!	!	!	!
8BBJ	.	8BJ	.	8bnJ	ff	.	.	.	.
.	.	.	.	.	.	12dJ	.	.	.
=119	=119	=119	=119	=119	=119	=119	=119	=119	=119
2.GG;)	ff	2.G;)	ff	2.dd;)	ff	2.ff) 4G 4d 4bn	.	.	.
4r	.	4r	.	4g	p	4re	.	.	.
=120	=120	=120	=120	=120	=120	=120	=120	=120	=120
(1c	p	(1en	p	(2g	.	[1gg 1r	.	p	I.I
.	.	.	.	(2cc)	.	.	.	.	.
=121	=121	=121	=121	=121	=121	=121	=121	=121	=121
1d)	.	1f)	.	(4cc)	.	1gg_	.	.	V43
.	.	.	.	4bn	.	.	.	.	.
.	.	.	.	4an	.	.	.	.	.
.	.	.	.	4b)	.	.	.	.	.
=122	=122	=122	=122	=122	=122	=122	=122	=122	=122
(2en	.	(2g	.	(4cc	.	2gg]	.	.	I6
.	.	.	.	4dd	.	.	.	.	.
2An)	.	2c)	.	4een	.	[2ccc	.	.	#viio6/V
.	.	.	.	4ff#X)	.	.	.	.	.
=123	=123	=123	=123	=123	=123	=123	=123	=123	=123
1G	.	1d	.	[1gg	.	(2ccc]	.	.	V(4)
.	.	.	.	.	.	2bbn)	.	.	V
=124	=124	=124	=124	=124	=124	=124	=124	=124	=124
(2c#X	.	(2en	.	(2gg]	.	(1aan	.	.	ii
2d)	.	2f)	.	[2ff)	.	.	.	.	.
=125	=125	=125	=125	=125	=125	=125	=125	=125	=125
(2Bn	.	(2d	.	(2ff]	.	[1gg)	.	.	I
2c)	.	2en)	.	[2een)	.	.	.	.	.
=126	=126	=126	=126	=126	=126	=126	=126	=126	=126
(2F	.	(4An	.	(4ee]	.	(4gg]	.	.	ii6(94)
.	.	4an	.	4dd	.	4ff	.	.	ii6
2G)	.	4g	.	4cc	.	4een	.	.	V(64)
.	.	4f)	.	4bn)	.	4dd)	.	.	V7
=127	=127	=127	=127	=127	=127	=127	=127	=127	=127
!LO:TX:a:t=pizz.	!	!	!	!	!	!	!	!	!
.	.	.	.	8qdd/	.	8qff/	.	.	I\\
4C	.	4en	.	(8ccL	.	(8eenL	.	.	.
.	.	.	.	8bn	.	8dd	.	.	.
4r	.	4r	.	8cc	.	8ee	.	.	.
.	.	.	.	8ddJ)	.	8ffJ)	.	.	.
2r	.	2r	.	4een'	.	4gg'	.	.	.
.	.	.	.	4r	.	4gg	.	.	.
=128	=128	=128	=128	=128	=128	=128	=128	=128	=128
4C	.	(2g	.	8G'L	.	(2gg	.	.	I
.	.	.	.	8en'	.	.	.	.	.
4r	.	.	.	8c'	.	.	.	.	.
.	.	.	.	8e'J	.	.	.	.	.
2r	.	[2cc)	.	8gL	.	[2ccc)	.	.	.
.	.	.	.	8e	.	.	.	.	.
.	.	.	.	8c	.	.	.	.	.
.	.	.	.	8eJ	.	.	.	.	.
=129	=129	=129	=129	=129	=129	=129	=129	=129	=129
4GG	.	(4cc]	.	8GL	.	(4ccc]	.	.	V7
.	.	.	.	8f	.	.	.	.	.
4r	.	4bn	.	8d	.	4bbn	.	.	.
.	.	.	.	8fJ	.	.	.	.	.
2r	.	4an	.	8gL	.	4aan	.	.	.
.	.	.	.	8f	.	.	.	.	.
.	.	4b)	.	8d	.	4bb)	.	.	.
.	.	.	.	8fJ	.	.	.	.	.
=130	=130	=130	=130	=130	=130	=130	=130	=130	=130
4C	.	4cc	.	8enL	.	(4ccc	.	.	I
.	.	.	.	8g	.	.	.	.	.
4r	.	(8cL	.	8e	.	4ddd	.	.	V6
.	.	8BnJ	.	8dJ	.	.	.	.	.
4BBn	.	4G)	.	8cL	.	4eeen	.	.	.
.	.	.	.	8f#X	.	.	.	.	.
4r	.	4c	.	8an	.	4fff#X)	.	.	V7/V
.	.	.	.	8ccJ	.	.	.	.	.
=131	=131	=131	=131	=131	=131	=131	=131	=131	=131
4GG	.	4Bn	.	8dL	.	[1ggg	.	.	V
.	.	.	.	8g	.	.	.	.	.
4r	.	4r	.	8bn	.	.	.	.	.
.	.	.	.	8ddJ	.	.	.	.	.
2r	.	2r	.	8ggL	.	.	.	.	.
.	.	.	.	8ff	.	.	.	.	.
.	.	.	.	8een	.	.	.	.	.
.	.	.	.	8ddJ	.	.	.	.	.
=132	=132	=132	=132	=132	=132	=132	=132	=132	=132
4AAn	.	4r	.	8cc#XL	.	2ggg]	.	.	V7/ii
.	.	.	.	8een	.	.	.	.	.
4r	.	(4en	.	8cc#	.	.	.	.	.
.	.	.	.	8anJ	.	.	.	.	.
4D	.	4An	.	8ddL	.	[2fff	.	.	ii
.	.	.	.	8ff	.	.	.	.	.
4r	.	4d)	.	8dd	.	.	.	.	.
.	.	.	.	8aJ	.	.	.	.	.
=133	=133	=133	=133	=133	=133	=133	=133	=133	=133
4GG	.	4r	.	8bnL	.	2fff]	.	.	V
.	.	.	.	8dd	.	.	.	.	.
4r	.	(4d	.	8b	.	.	.	.	.
.	.	.	.	8gJ	.	.	.	.	.
4C	.	4G	.	8ccL	.	([2eeen	.	.	I
.	.	.	.	8een	.	.	.	.	.
4r	.	4c)	.	8cc	.	.	.	.	.
.	.	.	.	8gJ	.	.	.	.	.
=134	=134	=134	=134	=134	=134	=134	=134	=134	=134
4FF	.	4r	.	8fL	.	4eee]	.	.	ii6(2)
.	.	.	.	8an	.	.	.	.	.
4r	.	4An	.	8dd	.	4ddd	.	.	ii6
.	.	.	.	8aJ	.	.	.	.	.
4GG	.	4r	.	8fL	.	4ccc	.	.	V7(4)
.	.	.	.	8bn	.	.	.	.	.
4r	.	4Bn	.	8g	.	4ddd)	.	.	V7
.	.	.	.	8fJ	.	.	.	.	.
=135	=135	=135	=135	=135	=135	=135	=135	=135	=135
.	.	.	.	.	.	8qfff/	.	.	I\\
4C	.	4r	.	8enL	.	(8eeenL	.	.	.
.	.	.	.	8g	.	8ddd	.	.	.
4r	.	(2c	.	8cc	.	8eee	.	.	.
.	.	.	.	8eenJ	.	8fffJ)	.	.	.
4r	.	.	.	8ggL	.	4ggg'	.	.	.
.	.	.	.	8ff	.	.	.	.	.
4BB-	.	4B-	.	8ee	.	4ggg'	.	.	v6
.	.	.	.	8ddJ	.	.	.	.	.
=136	=136	=136	=136	=136	=136	=136	=136	=136	=136
4AAn	.	4An)	.	8cc#XL	.	2ggg	.	.	V7/ii
.	.	.	.	8een	.	.	.	.	.
4r	.	(4en	.	8cc#	.	.	.	.	.
.	.	.	.	8anJ	.	.	.	.	.
4D	.	4A	.	8ddL	.	[2fff	.	.	ii
.	.	.	.	8ff	.	.	.	.	.
4r	.	4d)	.	8dd	.	.	.	.	.
.	.	.	.	8aJ	.	.	.	.	.
=137	=137	=137	=137	=137	=137	=137	=137	=137	=137
4GG	.	4r	.	8bnL	.	2fff]	.	.	V7
.	.	.	.	8dd	.	.	.	.	.
4r	.	(4d	.	8b	.	.	.	.	.
.	.	.	.	8gJ	.	.	.	.	.
4C	.	4G	.	8ccL	.	2eeen	.	.	I
.	.	.	.	8een	.	.	.	.	.
4r	.	4c)	.	8cc	.	.	.	.	.
.	.	.	.	8gJ	.	.	.	.	.
=138	=138	=138	=138	=138	=138	=138	=138	=138	=138
!LO:TX:b:t=cresc.	!	!	!	!LO:TX:b:t=cresc.	!	!LO:TX:a:t=cresc.	!	!	!
4FF	.	4r	.	8anL	.	(8eeenL	.	.	ii6
.	.	.	.	8dd	.	8ddd	.	.	.
!	!	!LO:TX:b:t=cresc.	!	!	!	!	!	!	!
4r	.	4F	.	8a	.	8ccc#X	.	.	.
.	.	.	.	8fJ	.	8dddJ	.	.	.
4F	.	4r	.	8aL	.	8ccc#L	.	.	.
.	.	.	.	8f	.	8ddd	.	.	.
4r	.	4f	.	8a	.	8fff	.	.	.
.	.	.	.	8fJ	.	8dddJ)	.	.	.
=139	=139	=139	=139	=139	=139	=139	=139	=139	=139
4G	.	4r	.	8enL	.	(2ccc	.	.	V(64)
.	.	.	.	8g	.	.	.	.	.
4r	.	4g	.	8f	.	.	.	.	.
.	.	.	.	8eJ	.	.	.	.	.
4GG	.	4r	.	8dL	.	4bbn)	.	.	V7
.	.	.	.	8f	.	.	.	.	.
4r	.	4G	.	8e	.	(8eenL	.	.	.
.	.	.	.	8dJ	.	8ffJ)	.	.	.
=140	=140	=140	=140	=140	=140	=140	=140	=140	=140
4C	pp	(4G'	pp	4c	pp	(8ggL	.	pp	I\\
.	.	.	.	.	.	8een)	.	.	.
4r	.	4G'	.	4r	.	8ff'	.	.	.
.	.	.	.	.	.	8dd'J	.	.	.
2r	.	4G'	.	2r	.	(8eeL	.	.	.
.	.	.	.	.	.	8cc)	.	.	.
.	.	4G')	.	.	.	8dd'	.	.	.
.	.	.	.	.	.	8bn'J	.	.	.
=141	=141	=141	=141	=141	=141	=141	=141	=141	=141
!LO:TX:a:t=arco	!	!	!	!	!	!	!	!	!
4En	.	1G	.	(8gL	.	4cc	.	.	I6
.	.	.	.	8en	.	.	.	.	.
4r	.	.	.	8f	.	4r	.	.	.
.	.	.	.	8dJ)	.	.	.	.	.
2r	.	.	.	4c'	.	4r	.	.	.
.	.	.	.	4r	.	4cc	.	.	.
=142	=142	=142	=142	=142	=142	=142	=142	=142	=142
4D	.	(4G'	.	1r	.	(8bnL	.	.	V64
.	.	.	.	.	.	8cc	.	.	.
4r	.	4G'	.	.	.	8b	.	.	.
.	.	.	.	.	.	8ccJ	.	.	.
2r	.	4G'	.	.	.	8ddL	.	.	.
.	.	.	.	.	.	8een	.	.	.
.	.	4G')	.	.	.	8dd	.	.	.
.	.	.	.	.	.	8eeJ)	.	.	.
=143	=143	=143	=143	=143	=143	=143	=143	=143	=143
(4GG'	.	1G	.	(8BnL	.	4ff	.	.	V7
.	.	.	.	8c	.	.	.	.	.
4GG'	.	.	.	8B	.	4r	.	.	.
.	.	.	.	8cJ)	.	.	.	.	.
4GG'	.	.	.	4d'	.	4r	.	.	.
4GG')	.	.	.	4r	.	(8ee-L	.	.	.
.	.	.	.	.	.	8ffJ)	.	.	.
=144	=144	=144	=144	=144	=144	=144	=144	=144	=144
4C	.	4G	.	1r	.	(8ggL	.	.	i.i
.	.	.	.	.	.	8ee-)	.	.	.
4r	.	4G	.	.	.	8ff'	.	.	.
.	.	.	.	.	.	8dd'J	.	.	.
2r	.	4G	.	.	.	(8ee-L	.	.	.
.	.	.	.	.	.	8cc)	.	.	.
.	.	4G	.	.	.	8dd'	.	.	.
.	.	.	.	.	.	8bn'J	.	.	.
=145	=145	=145	=145	=145	=145	=145	=145	=145	=145
4E-	.	1G	.	8g'L	.	4cc	.	.	i6
.	.	.	.	8e-'	.	.	.	.	.
4r	.	.	.	8f'	.	4r	.	.	.
.	.	.	.	8d'J	.	.	.	.	.
2r	.	.	.	4c'	.	4r	.	.	.
.	.	.	.	4r	.	4cc	.	.	.
=146	=146	=146	=146	=146	=146	=146	=146	=146	=146
4BB-	.	4A-	.	1r	.	(8ddL	.	.	V7/III
.	.	.	.	.	.	8ee-	.	.	.
4r	.	4A-	.	.	.	8dd	.	.	.
.	.	.	.	.	.	8ee-J	.	.	.
2r	.	4A-	.	.	.	8ffL	.	.	.
.	.	.	.	.	.	8gg	.	.	.
.	.	4A-	.	.	.	8ff	.	.	.
.	.	.	.	.	.	8ggJ)	.	.	.
=147	=147	=147	=147	=147	=147	=147	=147	=147	=147
4BB-	.	(2.D	.	(8fL	.	4aa-	.	.	.
.	.	.	.	8g	.	.	.	.	.
4BB-	.	.	.	8f	.	4r	.	.	.
.	.	.	.	8gJ)	.	.	.	.	.
4BB-	.	.	.	4a-'	.	4r	.	.	.
4BB-	.	4B-)	.	4r	.	(8ggL	.	.	.
.	.	.	.	.	.	8aa-J)	.	.	.
=148	=148	=148	=148	=148	=148	=148	=148	=148	=148
4EE-	.	4B-	.	1r	.	(8bb-L	.	.	III
.	.	.	.	.	.	8gg)	.	.	.
4r	.	4B-	.	.	.	8aa-'	.	.	.
.	.	.	.	.	.	8ff'J	.	.	.
2r	.	4B-	.	.	.	(8ggL	.	.	.
.	.	.	.	.	.	8ee-)	.	.	.
.	.	4B-	.	.	.	8ff'	.	.	.
.	.	.	.	.	.	8dd'J	.	.	.
=149	=149	=149	=149	=149	=149	=149	=149	=149	=149
4G	.	1B-	.	(8b-L	.	4ee-	.	.	III6
.	.	.	.	8g	.	.	.	.	.
4r	.	.	.	8a-	.	4r	.	.	.
.	.	.	.	8fJ)	.	.	.	.	.
2r	.	.	.	4e-'	.	4r	.	.	.
.	.	.	.	4r	.	4ee-	.	.	.
=150	=150	=150	=150	=150	=150	=150	=150	=150	=150
4C	.	4B-	.	1r	.	(8eenL	.	.	V7/iv
.	.	.	.	.	.	8ff	.	.	.
4r	.	4B-	.	.	.	8ee	.	.	.
.	.	.	.	.	.	8ffJ	.	.	.
2r	.	4B-	.	.	.	8ggL	.	.	.
.	.	.	.	.	.	8aa-	.	.	.
.	.	4B-	.	.	.	8gg	.	.	.
.	.	.	.	.	.	8aa-J)	.	.	.
=151	=151	=151	=151	=151	=151	=151	=151	=151	=151
4C	.	(2.En	.	(8gL	.	4bb-	.	.	.
.	.	.	.	8a-	.	.	.	.	.
4C	.	.	.	8g	.	4r	.	.	.
.	.	.	.	8a-J)	.	.	.	.	.
4C	.	.	.	4b-'	.	4r	.	.	.
4BB-	.	4c)	.	4r	.	4een	.	.	V2/iv
=152	=152	=152	=152	=152	=152	=152	=152	=152	=152
!LO:TX:b:t=cresc.	!	!LO:TX:b:t=cresc.	!	!	!	!LO:TX:b:t=cresc.	!	!	!
4AA-	.	4c	.	1r	.	(8ffL	.	.	iv6
.	.	.	.	.	.	8gg	.	.	.
4r	.	4c	.	.	.	8ff	.	.	.
.	.	.	.	.	.	8ggJ	.	.	.
2r	.	4c	.	.	.	8aa-L	.	.	.
.	.	.	.	.	.	8bb-	.	.	.
.	.	4c	.	.	.	8aa-	.	.	.
.	.	.	.	.	.	8bb-J)	.	.	.
=153	=153	=153	=153	=153	=153	=153	=153	=153	=153
!	!	!	!	!LO:TX:b:t=cresc.	!	!	!	!	!
4AA-	.	(2.c	.	(8ccL	.	4ccc	.	.	.
.	.	.	.	8bn	.	.	.	.	.
4r	.	.	.	8cc	.	4r	.	.	.
.	.	.	.	8bJ)	.	.	.	.	.
2r	.	.	.	4cc'	.	4r	.	.	.
.	.	4F)	.	4r	.	4ccc	.	.	.
=154	=154	=154	=154	=154	=154	=154	=154	=154	=154
4AA-	.	4F#X	.	1r	.	2.ccc	.	.	.It6
4r	.	4F#	.	.	.	.	.	.	.
2r	.	4F#	.	.	.	.	.	.	.
.	.	4F#	.	.	.	4ddd	.	.	.
=155	=155	=155	=155	=155	=155	=155	=155	=155	=155
4AA-	.	(2F#X	.	(8ccL	.	2eee-	.	.	.
.	.	.	.	8dd	.	.	.	.	.
4AA-	.	.	.	8cc	.	.	.	.	.
.	.	.	.	8ddJ)	.	.	.	.	.
4AA-	.	4C	.	4ee-	.	2f#X	.	.	.
4AA-	.	4c)	.	4c	.	.	.	.	.
=156	=156	=156	=156	=156	=156	=156	=156	=156	=156
!	!	!	!	!	!LO:DY:a	!	!	!	!
[1GG	f	4d	f	4Bn	f f	(8GL	.	.	V\\
.	.	.	.	.	.	8g	.	.	.
.	.	4r	.	(4g	.	8bn	.	.	V[V
.	.	.	.	.	.	8ddJ)	.	.	.
.	.	4r	.	[2a-)	sf	(8ffL	.	.	#viio7
.	.	.	.	.	.	8aa-)	.	.	.
.	.	4Bn	sf	.	.	8ff'	.	.	.
.	.	.	.	.	.	8dd'J	.	.	.
=157	=157	=157	=157	=157	=157	=157	=157	=157	=157
4GG]	.	(4c	.	(4a-]	.	8ffL	.	.	VI6
.	.	.	.	.	.	8ee-	.	.	.
4G	.	4e-	.	4g	.	8dd	.	.	i6
.	.	.	.	.	.	8ccJ	.	.	.
4G	.	4d	.	4f	.	8bnL	.	.	#viio6
.	.	.	.	.	.	8cc	.	.	.
4G	.	4c)	.	4e-)	.	8a-	.	.	#viio43/V
.	.	.	.	.	.	8f#XJ	.	.	.
=158	=158	=158	=158	=158	=158	=158	=158	=158	=158
!	!	!	!	!	!LO:DY:a	!	!	!	!
[1GG	.	4Bn	.	4d	f f	(8GL	.	.	V6
.	.	.	.	.	.	8g	.	.	.
.	.	4r	.	(4g	.	8bn	.	.	.
.	.	.	.	.	.	8ddJ)	.	.	.
.	.	4r	.	[2a-)	sf	(8ffL	.	.	#viio7
.	.	.	.	.	.	8aa-)	.	.	.
.	.	4B	sf	.	.	8ff'	.	.	.
.	.	.	.	.	.	8dd'J	.	.	.
=159	=159	=159	=159	=159	=159	=159	=159	=159	=159
4GG]	.	(4c	.	(4a-]	.	8ffL	.	.	VI6
.	.	.	.	.	.	8ee-	.	.	.
4G	.	4e-	.	4g	.	8dd	.	.	i6
.	.	.	.	.	.	8ccJ	.	.	.
4G	.	4d	.	4f	.	8bnL	.	.	viio6
.	.	.	.	.	.	8cc	.	.	.
4G	.	4c)	.	4e-)	.	8a-	.	.	#viio43/V
.	.	.	.	.	.	8f#XJ	.	.	.
=160	=160	=160	=160	=160	=160	=160	=160	=160	=160
!	!	!	!	!	!LO:DY:a	!	!	!	!
4GG	f	4Bn	f	4d	f f	(8GL	.	.	V]
.	.	.	.	.	.	8g	.	.	.
4r	.	4r	.	4g	.	8bn	.	.	V
.	.	.	.	.	.	8ddJ)	.	.	.
2r	.	2r	.	[2a-	sf	(8ffL	.	.	#viio2
.	.	.	.	.	.	8dd)	.	.	.
.	.	.	.	.	.	8b'	.	.	.
.	.	.	.	.	.	8dd'J	.	.	.
=161	=161	=161	=161	=161	=161	=161	=161	=161	=161
1r	.	1r	.	1a-]	.	(8ffL	.	.	.
.	.	.	.	.	.	8dd)	.	.	.
.	.	.	.	.	.	8bn'	.	.	.
.	.	.	.	.	.	8dd'J	.	.	.
.	.	.	.	.	.	(8ffL	.	.	.
.	.	.	.	.	.	8dd)	.	.	.
.	.	.	.	.	.	8b'	.	.	.
.	.	.	.	.	.	8dd'J	.	.	.
=162	=162	=162	=162	=162	=162	=162	=162	=162	=162
!	!	!	!	!	!LO:DY:a	!	!	!	!
4GG	f	4Bn 4d	f	4r	f	8GL	.	.	V
.	.	.	.	.	.	8bn	.	.	.
4r	.	4r	.	(4a-	.	8dd	.	.	.
.	.	.	.	.	.	8ffJ	.	.	.
2r	.	2r	.	[2Bn	sf	(8aa-L	.	.	#viio7\\
.	.	.	.	.	.	8ff)	.	.	.
.	.	.	.	.	.	8dd'	.	.	.
.	.	.	.	.	.	8ff'J	.	.	.
=163	=163	=163	=163	=163	=163	=163	=163	=163	=163
1r	.	1r	.	1B])	.	(8aa-L	.	.	.
.	.	.	.	.	.	8ff)	.	.	.
.	.	.	.	.	.	8dd'	.	.	.
.	.	.	.	.	.	8ff'J	.	.	.
.	.	.	.	.	.	(8aa-L	.	.	.
.	.	.	.	.	.	8ff)	.	.	.
.	.	.	.	.	.	8dd'	.	.	.
.	.	.	.	.	.	8ff'J	.	.	.
=164	=164	=164	=164	=164	=164	=164	=164	=164	=164
!	!	!	!	!	!	!LO:TX:b:t=decresc.	!	!	!
1r	.	1r	.	1r	.	1aa-	.	.	.
=165	=165	=165	=165	=165	=165	=165	=165	=165	=165
1r	.	1r	.	1r	.	1ff#X	.	p	.
=166	=166	=166	=166	=166	=166	=166	=166	=166	=166
!	!LO:DY:a	!	!LO:DY:a	!	!	!LO:TX:a:B:t=Prestissimo	!	!	!
4CC	ff ff	4C	ff	4G 4e-	.	(8ggL	.	ff	i
.	.	.	.	.	.	8ee-)	.	.	.
!	!	!	!LO:DY:a	!	!	!	!	!	!
2C	sf	2c	sf sf	2G 2e-	.	8ff'	.	.	.
.	.	.	.	.	.	8dd'J	.	.	.
.	.	.	.	.	.	(8ee-L	.	.	.
.	.	.	.	.	.	8cc)	.	.	.
[4C	.	[4c	.	[4G [4e-	.	8dd'	.	.	.
.	.	.	.	.	.	8bn'J	.	.	.
=167	=167	=167	=167	=167	=167	=167	=167	=167	=167
.	.	.	.	.	.	8qdd/	.	.	.
4C]	.	4c]	.	4G] 4e-]	.	8ccL	.	.	.
.	.	.	.	.	.	8bn	.	.	.
!	!	!	!LO:DY:a	!	!	!	!	!	!
2C	sf	2c	sf sf	2G 2e-	.	8cc	.	.	.
.	.	.	.	.	.	8ddJ	.	.	.
.	.	.	.	.	.	8ee-L	.	.	.
.	.	.	.	.	.	8een	.	.	.
4C	.	4c	.	4G 4e-	.	8ff	.	.	.
.	.	.	.	.	.	8ff#XJ	.	.	.
=168	=168	=168	=168	=168	=168	=168	=168	=168	=168
4BBn	.	4d	.	4G 4f	.	4gg	.	.	V65
4C	.	4c	.	4G 4e-	.	4gg	.	.	i
4GG	.	4Bn	.	4G 4d	.	4gg	.	.	V
4C	.	4c	.	4G 4e-	.	4gg	.	.	i
=169	=169	=169	=169	=169	=169	=169	=169	=169	=169
4GG	.	4Bn	.	4G 4d	.	2.gg	.	.	V
4GG	.	4B	.	4G 4d	.	.	.	.	.
4GG	.	4B	.	4G 4d	.	.	.	.	.
4GG	.	4B	.	4G 4d	.	(8ee-L	.	.	.
.	.	.	.	.	.	8ffJ)	.	.	.
=170	=170	=170	=170	=170	=170	=170	=170	=170	=170
4CC	.	4C	.	4G 4e-	.	(8ggL	.	.	i
.	.	.	.	.	.	8ee-)	.	.	.
2C	.	2c	.	2G 2e-	.	8ff'	.	.	.
.	.	.	.	.	.	8dd'J	.	.	.
.	.	.	.	.	.	(8ee-L	.	.	.
.	.	.	.	.	.	8cc)	.	.	.
[4C	.	[4c	.	[4G [4e-	.	8dd'	.	.	.
.	.	.	.	.	.	8bn'J	.	.	.
=171	=171	=171	=171	=171	=171	=171	=171	=171	=171
.	.	.	.	.	.	8qdd/	.	.	v.iv
4C]	.	4c]	.	4G] 4e-]	.	8ccL	.	.	.
.	.	.	.	.	.	8bn	.	.	.
4C	.	4c	.	4G 4e-	.	8cc	.	.	.
.	.	.	.	.	.	8ddJ	.	.	.
4C#X	.	4B-	.	4G 4en	.	8eenL	.	.	#viio7/V
.	.	.	.	.	.	8ff#X	.	.	.
4C#	.	4B-	.	4G 4e	.	8gg	.	.	.
.	.	.	.	.	.	8aanJ	.	.	.
=172	=172	=172	=172	=172	=172	=172	=172	=172	=172
4D	.	4B-	.	4G 4d	.	4bb-	.	.	V(64)
4E-	.	4B-	.	4g	.	4c#X	.	.	.Ger6
4D	.	4G	.	4B-	.	4d	.	.	V(64)
4DD	.	4F#X	.	4An	.	4d	.	.	V
=173	=173	=173	=173	=173	=173	=173	=173	=173	=173
2.GG	.	2.G	.	2.G	.	2.G	.	.	i\\
4r	.	4r	.	(8gL	.	(8ggL	.	.	.
.	.	.	.	8fJ	.	8aa-J	.	.	.
=174	=174	=174	=174	=174	=174	=174	=174	=174	=174
4C	.	4g	.	4en)	.	4bb-')	.	.	i.V7/iv
2C	sf	2c	sf	2c 2b-	sf	4een'	.	.	.
.	.	.	.	.	.	4ff'	.	.	.
4F	.	4c	.	4a-	.	[4aa-	.	sf	iv
=175	=175	=175	=175	=175	=175	=175	=175	=175	=175
4BB-	.	4f	.	4d	.	4aa-']	.	.	V7/III
2BB-	sf	2B-	sf	2a-	sf	4dd'	.	.	.
.	.	.	.	.	.	4ee-'	.	.	.
4E-	.	4B-	.	4g	.	[4gg	.	sf	III
=176	=176	=176	=176	=176	=176	=176	=176	=176	=176
4AA-	.	4C	.	(4c	.	4gg]	.	.	iv6(2)
4A-	.	4c	.	8dL	.	8ffL	.	.	.
.	.	.	.	8e-J)	.	8ee-J	.	.	.
4A-	.	4c	.	4f'	.	4dd'	.	.	ii%43
4A-	.	4c	.	4f#X'	.	4cc'	.	.	.It6
=177	=177	=177	=177	=177	=177	=177	=177	=177	=177
2.G	.	(4d	.	2.g	.	(4bn	.	.	V\\
.	.	2Bn)	.	.	.	2dd)	.	.	.
4r	.	4r	.	4r	.	(8ee-L	.	ff	.
.	.	.	.	.	.	8ffJ)	.	.	.
=178	=178	=178	=178	=178	=178	=178	=178	=178	=178
!	!LO:DY:a	!	!	!	!	!	!	!	!
4CC	ff ff	4C	.	4G 4e-	ff	(8ggL	.	.	i
.	.	.	.	.	.	8ee-)	.	.	.
2C	.	2c	.	2G 2e-	.	8ff'	.	.	.
.	.	.	.	.	.	8dd'J	.	.	.
.	.	.	.	.	.	(8ee-L	.	.	.
.	.	.	.	.	.	8cc)	.	.	.
[4C	.	[4c	.	[4G [4e-	.	8dd'	.	.	.
.	.	.	.	.	.	8bn'J	.	.	.
=179	=179	=179	=179	=179	=179	=179	=179	=179	=179
.	.	.	.	.	.	8qdd/	.	.	.
4C]	.	4c]	.	4G] 4e-]	.	8ccL	.	.	.
.	.	.	.	.	.	8bn	.	.	.
4BB-	.	4c	.	4en	.	8cc	.	.	V2/iv
.	.	.	.	.	.	8ddJ	.	.	.
4AA-	.	4c	.	4f	.	8ee-L	.	.	iv65
.	.	.	.	.	.	8een	.	.	.
4GG	.	4en	.	4c 4g	.	8ff	.	.	V64/iv
.	.	.	.	.	.	8ggJ	.	.	.
=180	=180	=180	=180	=180	=180	=180	=180	=180	=180
4FF	.	4f	.	4c 4a-	.	4aa-	.	.	iv
4AA-	.	4c	.	4cc	.	4f#X	.	.	.It6
4GG	.	4c	.	4e-	.	4g	.	.	V(64)
4GG	.	4Bn	.	4d	.	4g	.	.	V
=181	=181	=181	=181	=181	=181	=181	=181	=181	=181
4C	.	4c	.	4c	.	4c	.	.	i\\
4r	.	4r	.	4r	.	(8ccL	.	p	.
.	.	.	.	.	.	8ddJ)	.	.	.
4r	.	4r	.	4r	.	(8ee-L	.	.	.
.	.	.	.	.	.	8cc)	.	.	.
4GG	p	4G	p	4f	p	8dd'	.	.	V7
.	.	.	.	.	.	8bn'J	.	.	.
=182	=182	=182	=182	=182	=182	=182	=182	=182	=182
4C	.	4G	.	4e-	.	4cc	.	.	i
4r	.	4r	.	4r	.	(8ee-L	.	.	.
.	.	.	.	.	.	8ffJ)	.	.	.
4r	.	4r	.	4r	.	(8ggL	.	.	.
.	.	.	.	.	.	8ee-)	.	.	.
4GG	.	4G	.	4d 4bn	.	8ff'	.	.	V7
.	.	.	.	.	.	8dd'J	.	.	.
=183	=183	=183	=183	=183	=183	=183	=183	=183	=183
4C	.	4c	.	4e- 4cc	.	4ee-	.	.	i
4r	.	4r	.	4r	.	8cccL	.	.	.
.	.	.	.	.	.	8dddJ	.	.	.
4r	.	4r	.	4r	.	8eee-L	.	.	.
.	.	.	.	.	.	8ggg	.	.	.
!LO:TX:b:t=cresc.	!	!LO:TX:b:t=cresc.	!	!LO:TX:b:t=cresc.	!	!LO:TX:b:t=cresc.	!	!	!
4GG	.	4G 4g	.	4bn	.	8ddd	.	.	V
.	.	.	.	.	.	8gggJ	.	.	.
=184	=184	=184	=184	=184	=184	=184	=184	=184	=184
4C	.	4G 4g	.	4cc	.	8eee-L	.	.	i
.	.	.	.	.	.	8ggg	.	.	.
4GG	.	4G 4g	.	4b-	.	8ddd	.	.	V
.	.	.	.	.	.	8gggJ	.	.	.
4C	.	4G 4g	.	4cc	.	8eee-L	.	.	i
.	.	.	.	.	.	8ggg	.	.	.
4GG	.	4G 4g	.	4b-	.	8ddd	.	.	V
.	.	.	.	.	.	8gggJ	.	.	.
=185	=185	=185	=185	=185	=185	=185	=185	=185	=185
4C	.	4c	.	4cc	.	2eee-'	.	.	i
4r	.	2c	.	2cc	.	.	.	.	.
4B-	.	.	.	.	.	2eeen'	.	.	V2/iv
4r	.	[4c	.	[4cc	.	.	.	.	.
=186	=186	=186	=186	=186	=186	=186	=186	=186	=186
4A-	.	4c]	.	4cc]	.	2fff'	.	.	iv6
4r	.	2c	.	2cc	.	.	.	.	.
4F	.	.	.	.	.	2aaa-'	.	.	iv
4r	.	4c	.	4cc	.	.	.	.	.
=187	=187	=187	=187	=187	=187	=187	=187	=187	=187
4G	f	4r	.	4r	.	1ggg	.	f	V(64)
4r	.	(8e-L	f	(8ccL	f	.	.	.	.
.	.	8dJ	.	8ddJ	.	.	.	.	.
2r	.	4c')	.	4ee-')	.	.	.	.	.
.	.	4c'	.	4ee-'	.	.	.	.	.
=188	=188	=188	=188	=188	=188	=188	=188	=188	=188
4GG	.	4r	.	4r	.	1gg	.	.	V
4r	.	(8dL	.	(8bnL	.	.	.	.	.
.	.	8cJ	.	8ccJ	.	.	.	.	.
2r	.	4Bn')	.	4dd')	.	.	.	.	.
.	.	4B'	.	4dd'	.	.	.	.	.
=189	=189	=189	=189	=189	=189	=189	=189	=189	=189
4C	p	4c	p	4cc	p	2ee-'	.	p	i\\
!	!	!LO:TX:b:t=cresc.	!	!LO:TX:b:t=cresc.	!	!	!	!	!
4r	.	2C	.	2c	.	.	.	.	.
!LO:TX:b:t=cresc.	!	!	!	!	!	!LO:TX:b:t=cresc.	!	!	!
4BB-	.	.	.	.	.	2een'	.	.	V2/iv
4r	.	[4C	.	[4c	.	.	.	.	.
=190	=190	=190	=190	=190	=190	=190	=190	=190	=190
4AA-	.	4C]	.	4c]	.	2ff'	.	.	iv6
4r	.	2C	.	2c	.	.	.	.	.
4GG	.	.	.	.	.	2gg'	.	.	i64
4r	.	[4C	.	[4c	.	.	.	.	.
=191	=191	=191	=191	=191	=191	=191	=191	=191	=191
4FF	.	4C]	.	4c]	.	1aa-	.	f	iv7
4r	.	(8E-L	f	(8dL	f	.	.	.	.
.	.	8DJ	.	8e-J	.	.	.	.	.
2r	.	4C')	.	4e-')	.	.	.	.	.
.	.	4C'	.	4e-'	.	.	.	.	.
=192	=192	=192	=192	=192	=192	=192	=192	=192	=192
4AA-	f	4r	.	4r	.	1f#X	.	f	.Ger6
4r	.	(8e-L	f	(8ccL	f	.	.	.	.
.	.	8dJ	.	8ddJ	.	.	.	.	.
2r	.	4c')	.	4ee-')	.	.	.	.	.
.	.	4c'	.	4ee-'	.	.	.	.	.
=193	=193	=193	=193	=193	=193	=193	=193	=193	=193
4GG	f	4r	.	4r	.	1g	.	f	V(64)
4r	.	(8e-L	f	(8ccL	f	.	.	.	.
.	.	8dJ	.	8ddJ	.	.	.	.	.
2r	.	4c')	.	4ee-')	.	.	.	.	.
.	.	4c'	.	4ee-'	.	.	.	.	.
=194	=194	=194	=194	=194	=194	=194	=194	=194	=194
!	!	!	!	!	!LO:DY:a	!	!	!	!
4GG	f	4r	.	4r	f	1G	.	.	V
4r	.	(8dL	f	(8bnL	f	.	.	.	.
.	.	8cJ	.	8ccJ	.	.	.	.	.
2r	.	4Bn')	.	4dd')	.	.	.	.	.
.	.	4B'	.	4dd'	.	.	.	.	.
=195	=195	=195	=195	=195	=195	=195	=195	=195	=195
4C	.	4c	.	4cc	.	4c'	.	.	i\\
4r	.	4r	.	4r	.	2ee-	.	sf	.
4r	.	[2G	sf	(2e-	sf	.	.	.	.
4GG	sf	.	.	.	.	4cc'	.	.	i64
=196	=196	=196	=196	=196	=196	=196	=196	=196	=196
4D	.	4G]	.	4f)	.	4bn'	.	.	V43
4r	.	4r	.	4r	.	2ff	.	sf	.
4r	.	[2G	sf	2f	sf	.	.	.	.
4GG	sf	.	.	.	.	4dd'	.	.	V7
=197	=197	=197	=197	=197	=197	=197	=197	=197	=197
4E-	.	4G]	.	4g	.	4cc'	.	.	i6
4r	.	4r	.	4r	.	2gg	.	sf	.
4r	.	(2e-	sf	([2c 2g	sf	.	.	.	.
4C	sf	.	.	.	.	4ee-'	.	.	i
=198	=198	=198	=198	=198	=198	=198	=198	=198	=198
4F	.	4d)	.	4c]) 4a-	.	4dd	.	.	ii%65
4D	.	4c	.	4f	.	4aa-	.	.	ii%7
4G	.	4c	.	4e-	.	4cc	.	.	V(64)
4GG	.	4d	.	4f	.	4bn	.	.	V7
=199	=199	=199	=199	=199	=199	=199	=199	=199	=199
4C	.	4c	.	4e-	.	4cc	.	.	i\\
4GG	.	4r	.	4r	.	(8cL	.	.	.
.	.	.	.	.	.	8e-J	.	.	.
4C	.	[2G	sf	2e-	sf	8gL	.	.	.
.	.	.	.	.	.	8cc	.	.	.
4GG	sf	.	.	.	.	8ee-	.	.	.
.	.	.	.	.	.	8ccJ)	.	.	.
=200	=200	=200	=200	=200	=200	=200	=200	=200	=200
4D	.	4G]	.	4f	.	4bn	.	.	V43
4GG	.	4r	.	4r	.	(8dL	.	.	V7
.	.	.	.	.	.	8fJ	.	.	.
4D	sf	[2G	sf	(2f	sf	8bL	.	.	V43
.	.	.	.	.	.	8dd	.	.	.
4GG	.	.	.	.	.	8ff	.	.	V7
.	.	.	.	.	.	8ddJ)	.	.	.
=201	=201	=201	=201	=201	=201	=201	=201	=201	=201
4E-	.	4G]	.	4g)	.	8cc'L	.	.	i6
.	.	.	.	.	.	(8e-	.	.	.
4r	.	4r	.	4r	.	8g	.	.	.
.	.	.	.	.	.	8ccJ	.	.	.
4E-	.	4e-	.	4c 4g	.	8ee-L	.	.	.
.	.	.	.	.	.	8gg	.	.	.
4r	.	4r	.	4r	.	8ccc	.	.	.
.	.	.	.	.	.	8eee-J)	.	.	.
=202	=202	=202	=202	=202	=202	=202	=202	=202	=202
!	!	!	!	!	!	!LO:TX:b:t=decresc.	!	!	!
1r	.	1r	.	1r	.	4ggg'	.	.	.
.	.	.	.	.	.	4fff'	.	.	.
.	.	.	.	.	.	4eee-'	.	.	.
.	.	.	.	.	.	4ddd'	.	.	.
=203	=203	=203	=203	=203	=203	=203	=203	=203	=203
!LO:TX:b:t=decresc.	!	!LO:TX:b:t=decresc.	!	!LO:TX:b:t=decresc.	!	!	!	!	!
4F	.	4d	.	4c 4a-	.	4ccc'	.	.	ii%65
4r	.	4r	.	4r	.	4bb-'	.	.	.
4F	.	4d	.	4c 4a-	.	4aa-'	.	.	.
4r	.	4r	.	4r	.	4gg'	.	.	.
=204	=204	=204	=204	=204	=204	=204	=204	=204	=204
1r	.	1r	.	1r	.	4ff	.	.	.
.	.	.	.	.	.	4ee-	.	.	.
.	.	.	.	.	.	4dd	.	.	.
.	.	.	.	.	.	4aa-	.	.	.
=205	=205	=205	=205	=205	=205	=205	=205	=205	=205
4G	pp	4c	pp	4e-	pp	4cc	.	pp	V(64)
4r	.	4r	.	4r	.	4r	.	.	.
2r	.	2r	.	2r	.	2r	.	.	.
=206	=206	=206	=206	=206	=206	=206	=206	=206	=206
4GG	.	4d	.	4f	.	4bn	.	.	V7\\
4r	.	4r	.	4r	.	4r	.	.	.
2r	.	4r	.	4r	.	2r	.	.	.
.	.	(8EnL	p	(8enL	p	.	.	.	.
.	.	8FJ	.	8fJ	.	.	.	.	.
=207	=207	=207	=207	=207	=207	=207	=207	=207	=207
[1CC	sf	8GL	sf	8gL	sf	2r	.	.	I[I
.	.	8En	.	8en	.	.	.	.	.
.	.	8F	.	8f	.	.	.	.	.
.	.	8DJ)	.	8dJ)	.	.	.	.	.
.	.	4C'	.	4c'	.	4r	.	.	.
.	.	4en'	.	4gg'	.	4ccc'	.	p	.
=208	=208	=208	=208	=208	=208	=208	=208	=208	=208
4CC]	.	4f'	.	4aa-'	.	4ccc'	.	.	iv
4C	.	4en'	.	4gg'	.	4ccc'	.	.	I
4C	.	4f'	.	4aa-'	.	4ccc'	.	.	iv
4C	.	(8EnL	.	(8enL	.	4ccc'	.	.	I
.	.	8FJ	.	8fJ	.	.	.	.	.
=209	=209	=209	=209	=209	=209	=209	=209	=209	=209
[1CC	sf	8GL	sf	8gL	sf	2.ccc	.	sf	.
.	.	8En	.	8en	.	.	.	.	.
.	.	8F	.	8f	.	.	.	.	.
.	.	8DJ)	.	8dJ)	.	.	.	.	.
.	.	4C'	.	4c'	.	.	.	.	.
.	.	4en'	.	4gg'	.	4ccc'	.	.	.
=210	=210	=210	=210	=210	=210	=210	=210	=210	=210
4CC]	.	4f'	.	4aa-'	.	4ccc'	.	.	iv
4C	.	4en'	.	4gg'	.	4ccc'	.	.	I
4C	.	4f'	.	4aa-'	.	4ccc'	.	.	iv
4C	.	(8EnL	.	(8enL	.	4ccc'	.	.	I
.	.	8FJ	.	8fJ	.	.	.	.	.
=211	=211	=211	=211	=211	=211	=211	=211	=211	=211
2.CC	sf	8GL	sf	8gL	sf	2ccc	.	sf	.
.	.	8En	.	8en	.	.	.	.	.
.	.	8F	.	8f	.	.	.	.	.
.	.	8DJ)	.	8dJ)	.	.	.	.	.
.	.	4C'	.	4c'	.	4ccc'	.	p	.
4C	.	4r	.	4r	.	4ccc'	.	.	.
=212	=212	=212	=212	=212	=212	=212	=212	=212	=212
2.CC	sf	(8GL	sf	(8gL	sf	2r	.	.	.
.	.	8En	.	8en	.	.	.	.	.
.	.	8F	.	8f	.	.	.	.	.
.	.	8DJ)	.	8dJ)	.	.	.	.	.
.	.	4C'	.	4c'	.	4eeen	.	.	.
4C	.	4r	.	4r	.	4eee	.	.	.
=213	=213	=213	=213	=213	=213	=213	=213	=213	=213
2.CC	sf	(8GL	sf	(8gL	sf	2r	.	.	.
.	.	8En	.	8en	.	.	.	.	.
.	.	8F	.	8f	.	.	.	.	.
.	.	8DJ)	.	8dJ)	.	.	.	.	.
.	.	4C'	.	4c'	.	4ggg	.	.	.
4C	.	4r	.	4r	.	4ggg	.	.	.
=214	=214	=214	=214	=214	=214	=214	=214	=214	=214
1r	.	1r	.	1r	.	4cccc	.	pp	.
.	.	.	.	.	.	4cccc	.	.	.
.	.	.	.	.	.	4cccc	.	.	.
.	.	.	.	.	.	4cccc	.	.	.
=215	=215	=215	=215	=215	=215	=215	=215	=215	=215
1r	.	1r	.	1r	.	4cccc	.	.	I]
.	.	.	.	.	.	4r	.	.	.
.	.	.	.	.	.	4r	.	.	.
.	.	.	.	.	.	8r	.	.	.
.	.	.	.	.	.	(24ggLL	.	.	.
.	.	.	.	.	.	24aan	.	.	.
.	.	.	.	.	.	24bbnJJ)	.	.	.
=216	=216	=216	=216	=216	=216	=216	=216	=216	=216
1r	.	1r	.	1r	.	4ccc	.	.	I
.	.	.	.	.	.	4r	.	.	.
.	.	.	.	.	.	4r	.	.	.
.	.	.	.	.	.	8r	.	.	.
.	.	.	.	.	.	(24gLL	.	.	.
.	.	.	.	.	.	24an	.	.	.
.	.	.	.	.	.	24bnJJ)	.	.	.
=217	=217	=217	=217	=217	=217	=217	=217	=217	=217
2r	.	2r	.	2r	.	4cc	.	.	.
.	.	.	.	.	.	4r	.	.	.
4r	.	4r	.	4r	.	4r	.	.	.
!	!	!	!LO:DY:a	!	!	!	!	!	!
8r	ff	8r	ff	8r	ff	8r	.	ff	.
(24GGLL	.	(24GLL	.	(24GLL	.	(24GLL	.	.	.
24AAn	.	24An	.	24An	.	24An	.	.	.
24BBnJJ)	.	24BnJJ)	.	24BnJJ)	.	24BnJJ)	.	.	.
=218	=218	=218	=218	=218	=218	=218	=218	=218	=218
4C	.	4c	.	4c	.	4c	.	.	.
8r	.	8r	.	8r	.	8r	.	.	.
(24GGLL	.	(24GLL	.	(24GLL	.	(24GLL	.	.	.
24AAn	.	24An	.	24An	.	24An	.	.	.
24BBnJJ)	.	24BnJJ)	.	24BnJJ)	.	24BnJJ)	.	.	.
4C	.	4c	.	4c	.	4c	.	.	.
8r	.	8r	.	8r	.	8r	.	.	.
(24GGLL	.	(24GLL	.	(24GLL	.	(24GLL	.	.	.
24AA	.	24A	.	24A	.	24A	.	.	.
24BBJJ)	.	24BJJ)	.	24BJJ)	.	24BJJ)	.	.	.
=219	=219	=219	=219	=219	=219	=219	=219	=219	=219
4C	.	4c	.	4c	.	4c	.	.	I\\
4r	.	4r	.	4r	.	4r	.	.	.
2r	.	2r	.	2r	.	2r	.	.	.
=220	=220	=220	=220	=220	=220	=220	=220	=220	=220
2r	.	2r	.	2r	.	2r	.	.	.
4r;	.	4r;	.	4r;	.	4r;	.	.	.
==	==	==	==	==	==	==	==	==	==
*-	*-	*-	*-	*-	*-	*-	*-	*-	*-
!!!system-decoration: s1,s2,s3,s4
